!!!!SEGMENT: pl-cz--ii-260_zebrowski-marcin-jozef--sonata-pro-processione.krn
!!!cenid: 17xx:2325
!!!COM: Żebrowski, Marcin Józef
!!!COM-rismID: pe30020322
!!!CDT: 1702-1770/06/29
!!!CNT: Polish
!!!OTL: [Sonata] pro processione
!!!PDT:
!!!AGN:
!!!YEC: Copyright 2022 Narodowy Instytut Fryderyka Chopina (https://polishscores.org)
!!!YEM: License CC-BY-4.0 (https://creativecommons.org/licenses/by/4.0)
!!!SMS-siglum: PL-CZ
!!!SMS-shelfmark: II-260
!!!SMS-shelfwork: W
!!!SMS-variant:
!!!SMS-altvar:
!!!NIFC-rismSourceID: 300033528
!!!NIFC-rismChildID: 300033528
!!!NIFC-islandoraID: pl-cz:6044
!!!URL-pdf-islandora: https://repozytorium.nifc.pl/islandora/object/pl-cz%3A6044/datastream/PDF/view
!!!URL-scan: https://polish.musicsources.pl/pl/lokalizacje/galeria/rekopisy/807 @EN{Scan on Polish Music Sources Website} @PL{Skany w portalu Dziedzictwo Muzyki Polskiej w otwartym dostępie}
!!!IIIF:
!!!ONB-nifc:
!!!OMD: Adagio
!!!AIN: 2 clars 2 clrno 2 oboe 1 organ 1 viola 2 violn
!!!key: E-
**kern	**fba	**dynam	**kern	**dynam	**kern	**dynam	**kern	**dynam	**kern	**dynam	**kern	**dynam	**kern	**dynam	**kern	**dynam	**kern	**dynam	**kern	**dynam
*part10	*	*	*part9	*	*part8	*	*part7	*	*part6	*	*part5	*	*part4	*	*part3	*	*part2	*	*part1	*
*staff10	*	*	*staff9	*	*staff8	*	*staff7	*	*staff6	*	*staff5	*	*staff4	*	*staff3	*	*staff2	*	*staff1	*
*I"Organo.	*	*	*I"Viola obligata.	*	*I"Violino 2do.	*	*I"Violino Primo .	*	*I"Clarino 2 d.o	*	*I"Clarino 1.mo	*	*I"Clarinetto Secondo	*	*I"Clarinetto Primo	*	*I"Oboe 2. Conc :	*	*I"Obo 1. Conc :	*
*I'org (=bc)	*	*	*I'vla	*	*I'vl 2	*	*I'vl 1	*	*I'clno 2	*	*I'clno 1	*	*I'cl 2	*	*I'cl 1	*	*I'ob 2	*	*I'ob 1	*
*Iorgan	*	*	*Iviola	*	*Ivioln	*	*Ivioln	*	*Iclrno	*	*Iclrno	*	*Iclars	*	*Iclars	*	*Ioboe	*	*Ioboe	*
*ICklav	*	*	*ICstr	*	*ICstr	*	*ICstr	*	*ICbras	*	*ICbras	*	*ICww	*	*ICww	*	*ICww	*	*ICww	*
*clefF4	*	*	*clefC3	*	*clefG2	*	*clefG2	*	*clefG2	*	*clefG2	*	*clefG2	*	*clefG2	*	*clefG2	*	*clefG2	*
*	*	*	*	*	*	*	*	*	*ITrd-2c-3	*	*ITrd-2c-3	*	*ITrd1c2	*	*ITrd1c2	*	*	*	*	*
*k[b-e-a-]	*	*	*k[b-e-a-]	*	*k[b-e-a-]	*	*k[b-e-a-]	*	*k[b-e-a-]	*	*k[b-e-a-]	*	*k[b-e-a-]	*	*k[b-e-a-]	*	*k[b-e-a-]	*	*k[b-e-a-]	*
*E-:	*	*	*E-:	*	*E-:	*	*E-:	*	*E-:	*	*E-:	*	*E-:	*	*E-:	*	*E-:	*	*E-:	*
*M3/4	*	*	*M3/4	*	*M3/4	*	*M3/4	*	*M3/4	*	*M3/4	*	*M3/4	*	*M3/4	*	*M3/4	*	*M3/4	*
*	*	*	*	*	*	*	*	*	*	*	*	*	*all\right	*	*all\right	*	*	*	*	*
=1	=1	=1	=1	=1	=1	=1	=1	=1	=1	=1	=1	=1	=1	=1	=1	=1	=1	=1	=1	=1
!	!	!	!	!	!	!	!	!	!	!	!	!	!	!	!	!	!	!	!LO:TX:a:t=12	!
!	!	!	!	!	!LO:TX:t=P:problem=inne tempo	!	!	!	!	!	!	!	!LO:TX:a:t=Adagio	!	!LO:TX:a:t=Adagio.	!	!	!	!LO:TX:b:i:B:t=Adagio.	!
!LO:TX:a:t=Adagio	!	!LO:DY:b:t=Forte.	!	!	!LO:TX:b:B:t=Allegro.	!	!LO:TX:b:B:t=Adagio	!	!LO:TX:b:t=Adagio	!	!LO:TX:b:t=Adagio	!	!LO:TX:a:t=12.	!	!LO:TX:a:t=12.	!	!LO:TX:a:t=12	!	!LO:TX:a:B:t=Adagio	!
8.E-\L	.	f	8.e-\L	.	8.e-/L	.	8.e-/L	.	8.e-/L	.	8.e-/L	.	0.r	.	0.r	.	0.r	.	0.r	.
16G\K	.	.	16g\K	.	16g/K	.	16g/K	.	16g/K	.	16g/K	.	.	.	.	.	.	.	.	.
8.G\	.	.	8.g\	.	8.g/	.	8.g/	.	8.g/	.	8.g/	.	.	.	.	.	.	.	.	.
16B-\K	.	.	16b-\K	.	16b-/K	.	16b-/K	.	16b-/K	.	16b-/K	.	.	.	.	.	.	.	.	.
8.B-\	.	.	8.b-\	.	8.b-/	.	8.b-/	.	8.b-/	.	8.b-/	.	.	.	.	.	.	.	.	.
16e-\Jk	.	.	16ee-\Jk	.	16ee-/Jk	.	16ee-/Jk	.	16ee-/Jk	.	16ee-/Jk	.	.	.	.	.	.	.	.	.
=2	=2	=2	=2	=2	=2	=2	=2	=2	=2	=2	=2	=2	=2	=2	=2	=2	=2	=2	=2	=2
4e-\	.	.	4ee-\	.	8ee-\	.	8ee-\	.	8ee-\	.	8ee-\	.	.	.	.	.	.	.	.	.
.	.	.	.	.	4g/	.	4b-\	.	4g/	.	4b-\	.	.	.	.	.	.	.	.	.
4E-\	.	.	4e-\	.	.	.	.	.	.	.	.	.	.	.	.	.	.	.	.	.
.	.	.	.	.	4b-/	.	4ee-\	.	4g/	.	4ee-\	.	.	.	.	.	.	.	.	.
4E-\	.	.	4B-/	.	.	.	.	.	.	.	.	.	.	.	.	.	.	.	.	.
.	.	.	.	.	8ee-\	.	8gg\	.	8ee-\	.	8gg\	.	.	.	.	.	.	.	.	.
=3	=3	=3	=3	=3	=3	=3	=3	=3	=3	=3	=3	=3	=3	=3	=3	=3	=3	=3	=3	=3
4B-\	4	.	4B-/	.	4ee-\	.	4ggm\	.	4ee-\	.	4ggm\	.	.	.	.	.	.	.	.	.
4BB-/	3	.	4B-/	.	4dd\	.	4ff\	.	4b-\	.	4ff\	.	.	.	.	.	.	.	.	.
4r	.	.	4r	.	4r	.	4r	.	4r	.	4r	.	.	.	.	.	.	.	.	.
=4	=4	=4	=4	=4	=4	=4	=4	=4	=4	=4	=4	=4	=4	=4	=4	=4	=4	=4	=4	=4
*	*	*	*	*	*	*	*	*	*	*	*2\right	*	*	*	*	*	*	*	*	*
4B-\	.	.	4B-/	.	8.d/L	.	8.f/L	.	2b-/	.	2ff\	.	.	.	.	.	.	.	.	.
.	.	.	.	.	16f/K	.	16b-/K	.	.	.	.	.	.	.	.	.	.	.	.	.
4B-\	.	.	4d\	.	8.f/	.	8.b-/	.	.	.	.	.	.	.	.	.	.	.	.	.
.	.	.	.	.	16b-/K	.	16dd/K	.	.	.	.	.	.	.	.	.	.	.	.	.
4B-\	.	.	4B-\	.	8.b-/	.	8.dd/	.	4r	.	4r	.	.	.	.	.	.	.	.	.
.	.	.	.	.	16dd/Jk	.	16ff/Jk	.	.	.	.	.	.	.	.	.	.	.	.	.
=5	=5	=5	=5	=5	=5	=5	=5	=5	=5	=5	=5	=5	=5	=5	=5	=5	=5	=5	=5	=5
4B-\	.	.	4B-\	.	8dd\	.	8ff\	.	8b-/	.	8ff\	.	0.r	.	0.r	.	0.r	.	0.r	.
.	.	.	.	.	4f/	.	4b-\	.	4b-/	.	4ff\	.	.	.	.	.	.	.	.	.
4B-\	.	.	4d\	.	.	.	.	.	.	.	.	.	.	.	.	.	.	.	.	.
.	.	.	.	.	8b-\L	.	8dd\L	.	4b-/	.	8ff\	.	.	.	.	.	.	.	.	.
4B-\	.	.	4B-\	.	8dd\	.	8ff\	.	.	.	8ff\L	.	.	.	.	.	.	.	.	.
.	.	.	.	.	8ff\J	.	8aa-\J	.	8ff\	.	8aa-\J	.	.	.	.	.	.	.	.	.
=6	=6	=6	=6	=6	=6	=6	=6	=6	=6	=6	=6	=6	=6	=6	=6	=6	=6	=6	=6	=6
4BB-/	7	.	4B-\	.	4ffT\	.	4aa-M\	.	4ff\	.	4aa-\	.	.	.	.	.	.	.	.	.
8E-/L	.	.	4B-\	.	4ee-\	.	4gg\	.	4ee-\	.	4gg\	.	.	.	.	.	.	.	.	.
8E-/	.	.	.	.	.	.	.	.	.	.	.	.	.	.	.	.	.	.	.	.
8E-/	.	.	4B-\	.	4ee-\	.	4gg\	.	4ee-\	.	4gg\	.	.	.	.	.	.	.	.	.
8E-/J	.	.	.	.	.	.	.	.	.	.	.	.	.	.	.	.	.	.	.	.
!	!	!	!	!	!LO:LB:g=original	!	!	!	!	!	!	!	!	!	!	!	!	!	!	!
=7	=7	=7	=7	=7	=7	=7	=7	=7	=7	=7	=7	=7	=7	=7	=7	=7	=7	=7	=7	=7
8B-\L	.	.	8B-/L	.	8dd\L	.	8ff\L	.	8b-/L	.	8ff\L	.	.	.	.	.	.	.	.	.
8B-\	.	.	8B-/	.	8dd\J	.	8ff\J	.	8b-/J	.	8ff\J	.	.	.	.	.	.	.	.	.
8B-\	.	.	8B-/	.	8dd\	.	8ff\	.	8b-/	.	8ff\	.	.	.	.	.	.	.	.	.
8B-\	6 4	.	8B-/	.	4ee-\	.	4gg\	.	4ee-\	.	4gg\	.	.	.	.	.	.	.	.	.
8B-\	.	.	8B-/	.	.	.	.	.	.	.	.	.	.	.	.	.	.	.	.	.
8B-\J	.	.	8B-/J	.	(16dd\LL	.	(>16ff\LL	.	16b-/LL	.	16ff\LL	.	.	.	.	.	.	.	.	.
.	.	.	.	.	16cc\JJ)	.	16ee-\JJ)	.	16g/JJ	.	16ee-\JJ	.	.	.	.	.	.	.	.	.
*	*	*	*	*	*	*	*	*	*custos:g	*	*	*	*	*	*	*	*	*	*	*
!	!	!	!	!	!	!	!	!	!LO:LB:g=original	!	!	!	!	!	!	!	!	!	!	!
=8	=8	=8	=8	=8	=8	=8	=8	=8	=8	=8	=8	=8	=8	=8	=8	=8	=8	=8	=8	=8
8B-\L	.	.	8B-/L	.	8dd\L	.	8ff\L	.	8b-/L	.	8ff\L	.	.	.	.	.	.	.	.	.
8B-\	.	.	8B-/	.	8dd\J	.	8ff\J	.	8b-/J	.	8ff\J	.	.	.	.	.	.	.	.	.
8B-\	.	.	8B-/	.	8dd\	.	8ff\	.	8b-/	.	8ff\	.	.	.	.	.	.	.	.	.
8B-\	.	.	8B-/	.	4ee-\	.	4aa-\	.	4ff\	.	4aa-\	.	.	.	.	.	.	.	.	.
8B-\	.	.	8B-/	.	.	.	.	.	.	.	.	.	.	.	.	.	.	.	.	.
8B-\J	.	.	8B-/J	.	(16ee-\LL	.	(16gg\LL	.	16ee-/LL	.	16gg\LL	.	.	.	.	.	.	.	.	.
.	.	.	.	.	16dd\JJ)	.	16ff\JJ)	.	16b-/JJ	.	16ff\JJ	.	.	.	.	.	.	.	.	.
!LO:LB:g=original	!	!	!	!	!	!	!LO:LB:g=original	!	!	!	!	!	!	!	!	!	!	!	!	!
=9	=9	=9	=9	=9	=9	=9	=9	=9	=9	=9	=9	=9	=9	=9	=9	=9	=9	=9	=9	=9
8E-\L	.	.	8B-/L	.	8ee-\L	.	8gg\L	.	8ee-\L	.	8gg\L	.	0.r	.	0.r	.	0.r	.	0.r	.
8E-\	.	.	8B-/	.	8gg\J	.	8bb-\J	.	8gg\J	.	8bb-\J	.	.	.	.	.	.	.	.	.
.	.	.	.	.	8qgg/	.	8qqbb-/	.	8qqgg/	.	8qqbb-/	.	.	.	.	.	.	.	.	.
8A-\	.	.	8c/	.	4.ff\	.	4.aa-\	.	4.ff\	.	4.aa-\	.	.	.	.	.	.	.	.	.
8A-\	.	.	8c/	.	.	.	.	.	.	.	.	.	.	.	.	.	.	.	.	.
8A-\	.	.	8c/	.	.	.	.	.	.	.	.	.	.	.	.	.	.	.	.	.
8A-\J	.	.	8c/J	.	8ee-\	.	8gg\	.	8ee-\	.	8gg\	.	.	.	.	.	.	.	.	.
!	!	!	!LO:LB:g=original	!	!	!	!	!	!	!	!LO:LB:g=original	!	!	!	!	!	!	!	!	!
=10	=10	=10	=10	=10	=10	=10	=10	=10	=10	=10	=10	=10	=10	=10	=10	=10	=10	=10	=10	=10
!LO:TX:t=P:problem=mixed beam	!	!	!LO:TX:t=P:problem=mixed beam	!	!	!	!	!	!	!	!	!	!	!	!	!	!	!	!	!
8B-\L	.	.	8F/L	.	8dd\L	.	8ff\L	.	4b-/	.	4ff\	.	.	.	.	.	.	.	.	.
8B-\	.	.	8f\	.	8aa-\J	.	8ccc\J	.	.	.	.	.	.	.	.	.	.	.	.	.
.	.	.	.	.	8qqaa-/	.	8qqccc/	.	.	.	.	.	.	.	.	.	.	.	.	.
8BB-/	.	.	8d\	.	4.gg\	.	4.bb-\	.	4r	.	4r	.	.	.	.	.	.	.	.	.
8BB-/	.	.	8d\	.	.	.	.	.	.	.	.	.	.	.	.	.	.	.	.	.
8D/	.	.	8B-\	.	.	.	.	.	8r	.	8r	.	.	.	.	.	.	.	.	.
8D/J	.	.	8B-\J	.	8ff\	.	8aa-\	.	8ff\	.	8aa-\	.	.	.	.	.	.	.	.	.
=11	=11	=11	=11	=11	=11	=11	=11	=11	=11	=11	=11	=11	=11	=11	=11	=11	=11	=11	=11	=11
*	*	*	*	*	*	*	*Xtuplet	*	*	*	*	*	*	*	*	*	*	*	*	*
!	!	!	!	!	!	!	!LO:TUP:a:problem=klamra łukowa	!	!	!	!LO:TUP:a	!	!	!	!	!	!	!	!	!
4E-\	.	.	4B-/	.	4ee-\	.	12gg\L	.	4ee-\	.	12gg\L	.	.	.	.	.	.	.	.	.
.	.	.	.	.	.	.	12ff\	.	.	.	12ff\	.	.	.	.	.	.	.	.	.
.	.	.	.	.	.	.	12ee-\J	.	.	.	12ee-\J	.	.	.	.	.	.	.	.	.
4B-\	.	.	4B-/	.	4ee-\	.	4gg\	.	4e-/	.	4gg\	.	.	.	.	.	.	.	.	.
4BB-/	.	.	4B-/	.	4dd\	.	4ffT\	.	4b-/	.	4ffT\	.	.	.	.	.	.	.	.	.
=12	=12	=12	=12	=12	=12	=12	=12	=12	=12	=12	=12	=12	=12	=12	=12	=12	=12	=12	=12	=12
!	!	!	!	!	!LO:TX:t=P:problem=mixed beam	!	!LO:TX:t=P:problem=mixed beam	!	!	!	!LO:TX:t=P:problem=mixed beam	!	!	!	!	!	!	!	!	!
8.E-\L	.	.	8.B-/L	.	8.ee-\L	.	8.ee-\L	.	8.g/L	.	8.ee-\L	.	.	.	.	.	.	.	.	.
16E-\Jk	.	.	16B-/Jk	.	16G/Jk 16g	.	16e-/Jk	.	16e-/Jk	.	16g/Jk	.	.	.	.	.	.	.	.	.
4E-\	.	.	4B-/	.	4G/ 4g	.	4e-/	.	4e-/	.	4g/	.	.	.	.	.	.	.	.	.
4r	.	.	4r	.	4r	.	4r	.	4r	.	4r	.	.	.	.	.	.	.	.	.
!	!	!	!	!	!LO:LB:g=original	!	!	!	!	!	!	!	!	!	!	!	!	!	!	!
=13	=13	=13	=13	=13	=13	=13	=13	=13	=13	=13	=13	=13	=13	=13	=13	=13	=13	=13	=13	=13
*2\right	*	*	*	*	*	*	*	*	*	*	*	*	*	*	*2\right	*	*	*	*2\right	*
!LO:TX:a:i:t=S.	!	!	!	!	!LO:TX:a:t=1	!	!	!	!	!	!	!	!	!	!LO:TX:a:i:t=Solo	!	!	!	!	!
!	!	!	!	!LO:DY:t=po	!LO:TX:a:i:t=S&colon;	!LO:DY:b:t=po	!LO:TX:a:i:t=S&colon;	!LO:DY:t=piano.	!LO:TX:a:t=7	!	!LO:TX:a:t=7	!	!LO:TX:a:i:t=Solo	!	!	!	!LO:TX:a:i:t=Solo	!	!LO:TX:a:i:t=S&colon;	!
2E-\	.	.	2B-/	p	2.r	p	8.e-/L	p	0.r	.	0.r	.	[2.g/	.	[2.ee-\	.	[2.g/	.	[2.ee-\	.
.	.	.	.	.	.	.	16g/K	.	.	.	.	.	.	.	.	.	.	.	.	.
.	.	.	.	.	.	.	8.g/	.	.	.	.	.	.	.	.	.	.	.	.	.
.	.	.	.	.	.	.	16b-/K	.	.	.	.	.	.	.	.	.	.	.	.	.
4r	.	.	4r	.	.	.	8.b-/	.	.	.	.	.	.	.	.	.	.	.	.	.
.	.	.	.	.	.	.	16ee-/Jk	.	.	.	.	.	.	.	.	.	.	.	.	.
=14	=14	=14	=14	=14	=14	=14	=14	=14	=14	=14	=14	=14	=14	=14	=14	=14	=14	=14	=14	=14
!	!	!	!	!	!	!	!LO:TX:t=P:problem=mixed beam	!	!	!	!	!	!	!	!	!	!	!	!	!
2E-\	.	.	2B-/	.	8.e-/L	.	8.ee-\L	.	.	.	.	.	4g/]	.	4ee-\]	.	4g/]	.	4ee-\]	.
.	.	.	.	.	16g/K	.	16e-/Jk	.	.	.	.	.	.	.	.	.	.	.	.	.
.	.	.	.	.	8.g/	.	4e-/	.	.	.	.	.	4g/	.	4b-\	.	4g/	.	4b-\	.
.	.	.	.	.	16b-/K	.	.	.	.	.	.	.	.	.	.	.	.	.	.	.
4r	.	.	4r	.	8.b-/	.	4r	.	.	.	.	.	4g/	.	4b-\	.	4g/	.	4b-\	.
.	.	.	.	.	16ee-/Jk	.	.	.	.	.	.	.	.	.	.	.	.	.	.	.
=15	=15	=15	=15	=15	=15	=15	=15	=15	=15	=15	=15	=15	=15	=15	=15	=15	=15	=15	=15	=15
!	!	!	!	!	!LO:TX:t=P:problem=mixed beam	!	!LO:TX:a:t=5.	!	!	!	!	!	!	!	!	!	!	!	!	!
8.E-\L	6 4	.	8.e-\L	.	8.ee-\L	.	0.r	.	.	.	.	.	8a-/L	.	8cc\L	.	8a-/L	.	8cc\L	.
.	.	.	.	.	.	.	.	.	.	.	.	.	8g/J	.	8b-\J	.	8g/J	.	8b-\J	.
16G\K	6_	.	16g\K	.	16e-/Jk	.	.	.	.	.	.	.	.	.	.	.	.	.	.	.
8.G\	.	.	8.g\	.	4e-/	.	.	.	.	.	.	.	[2g/	.	[2b-\	.	[2g/	.	[2b-\	.
16B-\K	x	.	16b-\K	.	.	.	.	.	.	.	.	.	.	.	.	.	.	.	.	.
8.B-\	.	.	8.b-\	.	4r	.	.	.	.	.	.	.	.	.	.	.	.	.	.	.
16e-\Jk	.	.	16ee-\Jk	.	.	.	.	.	.	.	.	.	.	.	.	.	.	.	.	.
!LO:LB:g=original	!	!	!	!	!	!	!	!	!	!	!	!	!	!	!	!	!	!	!	!
=16	=16	=16	=16	=16	=16	=16	=16	=16	=16	=16	=16	=16	=16	=16	=16	=16	=16	=16	=16	=16
!	!	!	!	!	!LO:TX:a:t=4	!	!	!	!	!	!	!	!LO:TX:t=P:problem=mixed beam	!	!	!	!LO:TX:t=P:problem=mixed beam	!	!	!
4e-\	.	.	4ee-\	.	0.r	.	.	.	.	.	.	.	8g/L]	.	8b-\L]	.	8g/L]	.	8b-\L]	.
.	.	.	.	.	.	.	.	.	.	.	.	.	(8ee-\	.	(8gg\	.	(8ee-\	.	(8gg\	.
4r	.	.	4r	.	.	.	.	.	.	.	.	.	8dd\	.	8ff\	.	8dd\	.	8ff\	.
.	.	.	.	.	.	.	.	.	.	.	.	.	8cc\	.	8ee-\	.	8cc\	.	8ee-\	.
4r	.	.	4r	.	.	.	.	.	.	.	.	.	8b-\	.	8dd\	.	8b-\	.	8dd\	.
.	.	.	.	.	.	.	.	.	.	.	.	.	8a-\J)	.	8cc\J)	.	8a-\J)	.	8cc\J)	.
=17	=17	=17	=17	=17	=17	=17	=17	=17	=17	=17	=17	=17	=17	=17	=17	=17	=17	=17	=17	=17
!	!	!	!LO:TX:a:t=3	!	!	!	!	!	!	!	!	!	!	!	!	!	!	!	!	!
4E-\	.	.	1.r	.	.	.	.	.	1.r	.	1.r	.	4g/	.	4b-\	.	4g/	.	4b-/	.
.	.	.	.	.	.	.	.	.	.	.	.	.	8qg/	.	8qqb-/	.	8qg/	.	8qb-/	.
8F\L	7	.	.	.	.	.	.	.	.	.	.	.	2f/	.	2a-\	.	2f/	.	2a-/	.
8BB-\	.	.	.	.	.	.	.	.	.	.	.	.	.	.	.	.	.	.	.	.
8C\	.	.	.	.	.	.	.	.	.	.	.	.	.	.	.	.	.	.	.	.
8D\J	.	.	.	.	.	.	.	.	.	.	.	.	.	.	.	.	.	.	.	.
!	!	!	!	!	!	!	!	!	!	!	!	!	!	!	!LO:LB:g=original	!	!LO:LB:g=original	!	!	!
=18	=18	=18	=18	=18	=18	=18	=18	=18	=18	=18	=18	=18	=18	=18	=18	=18	=18	=18	=18	=18
!	!	!	!	!	!	!	!	!	!	!	!	!	!LO:TX:t=P:problem=mixed beam	!	!LO:TX:t=P:problem=mixed beam	!	!LO:TX:t=P:problem=mixed beam	!	!LO:TX:t=P:problem=mixed beam	!
4E-\	.	.	.	.	.	.	.	.	.	.	.	.	8e-/L	.	8g/L	.	8e-/L	.	8g/L	.
.	.	.	.	.	.	.	.	.	.	.	.	.	(8ee-\	.	(8gg\	.	(8ee-\	.	(8gg\	.
4r	.	.	.	.	.	.	.	.	.	.	.	.	8dd\	.	8ff\	.	8dd\	.	8ff\	.
.	.	.	.	.	.	.	.	.	.	.	.	.	8cc\	.	8ee-\	.	8cc\	.	8ee-\	.
4r	.	.	.	.	.	.	.	.	.	.	.	.	8b-\	.	8dd\	.	8b-\	.	8dd\	.
.	.	.	.	.	.	.	.	.	.	.	.	.	8a-\J)	.	8cc\J)	.	8a-\J)	.	8cc\J)	.
!	!	!	!	!	!	!	!	!	!	!	!	!	!LO:LB:g=original	!	!	!	!	!	!LO:LB:g=original	!
=19	=19	=19	=19	=19	=19	=19	=19	=19	=19	=19	=19	=19	=19	=19	=19	=19	=19	=19	=19	=19
4E-\	.	.	2.r	.	.	.	2.r	.	2.r	.	2.r	.	8g/L	.	8b-\L	.	8g/L	.	8b-/L	.
.	.	.	.	.	.	.	.	.	.	.	.	.	8a-/J	.	8cc\J	.	8a-/J	.	8cc/J	.
.	.	.	.	.	.	.	.	.	.	.	.	.	8qg/	.	8qb-/	.	8qg/	.	8qb-/	.
8F\L	.	.	.	.	.	.	.	.	.	.	.	.	2f/	.	2a-\	.	2f/	.	2a-/	.
8B-\	.	.	.	.	.	.	.	.	.	.	.	.	.	.	.	.	.	.	.	.
8c\	.	.	.	.	.	.	.	.	.	.	.	.	.	.	.	.	.	.	.	.
8d\J	.	.	.	.	.	.	.	.	.	.	.	.	.	.	.	.	.	.	.	.
!	!	!	!	!	!	!	!LO:LB:g=original	!	!LO:LB:g=original	!	!	!	!	!	!	!	!	!	!	!
=20	=20	=20	=20	=20	=20	=20	=20	=20	=20	=20	=20	=20	=20	=20	=20	=20	=20	=20	=20	=20
.	.	.	.	.	.	.	.	.	.	.	.	.	8qf/	.	8qqa-/	.	8qqf/	.	8qqa-/	.
!	!	!LO:DY:b:t=for	!	!LO:DY:b:t=for	!	!LO:DY:b:t=for:rj	!	!LO:DY:rj	!	!	!	!	!	!	!	!	!	!	!	!
8.e-\L	.	f	8.ee-\L	f	8.ee-\L	f	8.ee-\L	f	8.ee-/L	.	8.ee-\L	.	2e-/	.	2g/	.	2e-/	.	2g/	.
16B-\K	.	.	16b-\K	.	16b-\K	.	16b-\K	.	16b-/K	.	16b-\K	.	.	.	.	.	.	.	.	.
8.B-\	6 4	.	8.b-\	.	8.b-\	.	8.b-\	.	8.b-/	.	8.b-\	.	.	.	.	.	.	.	.	.
16G\K	.	.	16g\K	.	16g\K	.	16g\K	.	16g/K	.	16g\K	.	.	.	.	.	.	.	.	.
8.G\	.	.	8.g\	.	8.g\	.	8.g\	.	8.g/	.	8.g\	.	4ee-\	.	4gg\	.	4ee-\	.	4gg\	.
16E-\Jk	.	.	16e-\Jk	.	16e-\Jk	.	16e-\Jk	.	16e-/Jk	.	16e-\Jk	.	.	.	.	.	.	.	.	.
!	!	!	!LO:LB:g=original	!	!	!	!	!	!	!	!	!	!	!	!	!	!	!	!	!
=21	=21	=21	=21	=21	=21	=21	=21	=21	=21	=21	=21	=21	=21	=21	=21	=21	=21	=21	=21	=21
!	!	!LO:DY:b:t=po	!	!	!	!	!	!	!	!	!	!	!	!	!	!	!	!	!	!
8B-\L	.	p	4b-\	.	4b-\	.	4b-\	.	4b-/	.	4b-/	.	8dd\L	.	8ff\L	.	8dd\L	.	8ff\L	.
8B-\	.	.	.	.	.	.	.	.	.	.	.	.	8dd\J	.	8ff\J	.	8dd\J	.	8ff\J	.
8B-\	.	.	4r	.	4r	.	4r	.	4r	.	4r	.	8dd\	.	8ff\	.	8dd\	.	8ff\	.
8B-\	.	.	.	.	.	.	.	.	.	.	.	.	4ee-\	.	4gg\	.	4ee-\	.	4gg\	.
8B-\	6 4	.	4r	.	4r	.	4r	.	4r	.	4r	.	.	.	.	.	.	.	.	.
8B-\J	.	.	.	.	.	.	.	.	.	.	.	.	16dd\LL	.	16ff\LL	.	16dd\LL	.	16ff\LL	.
.	.	.	.	.	.	.	.	.	.	.	.	.	16cc\JJ	.	16ee-\JJ	.	16cc\JJ	.	16ee-\JJ	.
=22	=22	=22	=22	=22	=22	=22	=22	=22	=22	=22	=22	=22	=22	=22	=22	=22	=22	=22	=22	=22
!	!	!	!	!LO:DY:b:t=po	!	!	!	!	!	!	!	!	!	!	!	!	!	!	!	!
8B-\L	.	.	8b-\L	p	8dd\L	.	8ff\L	.	8b-/L	.	8ff\L	.	4dd\	.	4ff\	.	4dd\	.	4ff\	.
8B-\	.	.	8b-\	.	8dd\J	.	8ff\J	.	8b-/J	.	8ff\J	.	.	.	.	.	.	.	.	.
8B-\	.	.	8b-\	.	8dd\	.	8ff\	.	8b-/	.	8ff\	.	8dd|>\	.	4b-\	.	8dd|>\	.	4b-\	.
8B-\	.	.	8b-\	.	4ee-\	.	4gg\	.	4ee-\	.	4gg\	.	8r	.	.	.	8r	.	.	.
8B-\	.	.	8b-\	.	.	.	.	.	.	.	.	.	4r	.	4r	.	4r	.	4r	.
8B-\J	.	.	8b-\J	.	(16dd\LL	.	(16ff\LL	.	16b-/LL	.	16ff\LL	.	.	.	.	.	.	.	.	.
.	.	.	.	.	16cc\JJ)	.	16ee-\JJ)	.	16g/JJ	.	16ee-\JJ	.	.	.	.	.	.	.	.	.
!	!	!	!	!	!LO:LB:g=original	!	!	!	!	!	!	!	!	!	!	!	!	!	!	!
=23	=23	=23	=23	=23	=23	=23	=23	=23	=23	=23	=23	=23	=23	=23	=23	=23	=23	=23	=23	=23
8B-\L	.	.	4b-\	.	4dd\	.	4ff\	.	4b-/	.	4ff\	.	8dd\L	.	8ff\L	.	8dd\L	.	8ff\L	.
8B-\	.	.	.	.	.	.	.	.	.	.	.	.	8dd\J	.	8ff\J	.	8dd\J	.	8ff\J	.
8B-\	.	.	4r	.	4r	.	4b-\	.	4r	.	4b-/	.	8dd\	.	8ff\	.	8dd\	.	8ff\	.
8B-\	.	.	.	.	.	.	.	.	.	.	.	.	4ee-\	.	4gg\	.	4ee-\	.	4gg\	.
8B-\	.	.	4r	.	4r	.	4r	.	4r	.	4r	.	.	.	.	.	.	.	.	.
8B-\J	.	.	.	.	.	.	.	.	.	.	.	.	16dd\LL	.	16ff\LL	.	16dd\LL	.	16ff\LL	.
.	.	.	.	.	.	.	.	.	.	.	.	.	16cc\JJ	.	16ee-\JJ	.	16cc\JJ	.	16ee-\JJ	.
*	*	*	*	*	*	*	*	*	*	*	*	*	*	*	*	*	*custos:dd	*	*	*
!LO:LB:g=original	!	!	!	!	!	!	!	!	!	!	!	!	!	!	!LO:LB:g=original	!	!LO:LB:g=original	!	!	!
=24	=24	=24	=24	=24	=24	=24	=24	=24	=24	=24	=24	=24	=24	=24	=24	=24	=24	=24	=24	=24
!	!	!	!	!	!	!	!	!	!	!	!LO:TX:a:t=1	!	!	!	!	!	!	!	!	!
8B-\L	.	.	8b-\L	.	8dd\L	.	8ff\L	.	2.r	.	2.r	.	4dd\	.	4ff\	.	4dd\	.	4ff\	.
8B-\	.	.	8b-\	.	8dd\J	.	8ff\J	.	.	.	.	.	.	.	.	.	.	.	.	.
8B-\	.	.	8b-\	.	8dd\	.	8ff\	.	.	.	.	.	8dd\	.	4b-\	.	8dd|>\	.	4b-\	.
8B-\	.	.	8b-\	.	4ee-\	.	4gg\	.	.	.	.	.	8r	.	.	.	8r	.	.	.
8B-\	.	.	8b-\	.	.	.	.	.	.	.	.	.	4r	.	4r	.	4r	.	4r	.
8B-\J	.	.	8b-\J	.	(16dd\LL	.	(16ff\LL	.	.	.	.	.	.	.	.	.	.	.	.	.
.	.	.	.	.	16cc\JJ)	.	16ee-\JJ)	.	.	.	.	.	.	.	.	.	.	.	.	.
!	!	!	!	!	!	!	!	!	!	!	!LO:LB:g=original	!	!	!	!	!	!	!	!LO:LB:g=original	!
=25	=25	=25	=25	=25	=25	=25	=25	=25	=25	=25	=25	=25	=25	=25	=25	=25	=25	=25	=25	=25
*	*	*	*	*	*Xtuplet	*	*	*	*	*	*Xtuplet	*	*Xtuplet	*	*Xtuplet	*	*Xtuplet	*	*Xtuplet	*
!	!	!LO:DY:b:t=Forte	!	!LO:DY:b:t=for	!LO:TUP:a:problem=klamra łukowa	!	!LO:TUP:a:problem=klamra łukowa	!	!	!	!LO:TUP:a:problem=klamra łukowa	!	!LO:TUP:a:problem=klamra łukowa	!	!LO:TUP:a:problem=klamra łukowa	!	!LO:TUP:a:problem=klamra łukowa	!	!LO:TUP:a:problem=klamra łukowa	!
8BB-/L	.	f	8b-\L	f	12dd\L	.	12ff\L	.	4b-/	.	12ff\L	.	12dd\L	.	12ff\L	.	12dd\L	.	12ff\L	.
.	.	.	.	.	12ee-\	.	12gg\	.	.	.	12gg\	.	12ee-\	.	12gg\	.	12ee-\	.	12gg\	.
8BB-/	.	.	8b-\	.	.	.	.	.	.	.	.	.	.	.	.	.	.	.	.	.
.	.	.	.	.	12ff\J	.	12aa-\J	.	.	.	12aa-\J	.	12ff\J	.	12aa-\J	.	12ff\J	.	12aa-\J	.
8BB-/	.	.	8b-\	.	4ff\	.	4aa-\	.	4ff\	.	4aa-\	.	4ff\	.	4aa-\	.	4ff\	.	4aa-\	.
8BB-/	.	.	8b-\	.	.	.	.	.	.	.	.	.	.	.	.	.	.	.	.	.
8E-/	.	.	8b-\	.	4ee-\	.	4gg\	.	4ee-\	.	4gg\	.	4ee-\	.	4gg\	.	4ee-\	.	4gg\	.
8E-/J	.	.	8b-\J	.	.	.	.	.	.	.	.	.	.	.	.	.	.	.	.	.
!	!	!	!	!	!	!	!	!	!	!	!	!	!LO:LB:g=original	!	!	!	!	!	!	!
=26	=26	=26	=26	=26	=26	=26	=26	=26	=26	=26	=26	=26	=26	=26	=26	=26	=26	=26	=26	=26
4B-\	4	.	4b-\	.	4ee-M\	.	4ggm\	.	4ee-\	.	4gg\	.	4ee-\	.	4gg\	.	4ee-\	.	4ggt\	.
4BB-/	3	.	4b-\	.	4dd\	.	4ff\	.	4b-\	.	4ff\	.	4dd\	.	4ff\	.	4dd\	.	4ff\	.
!	!	!LO:DY:b:t=po	!	!	!	!	!	!	!	!	!	!	!	!	!	!	!	!	!	!
4B-\	.	p	4b-\	.	4dd\	.	4ff\	.	4r	.	4r	.	[4dd\	.	4ff\	.	[4dd\	.	4ff\	.
=27	=27	=27	=27	=27	=27	=27	=27	=27	=27	=27	=27	=27	=27	=27	=27	=27	=27	=27	=27	=27
*	*	*	*	*	*2\right	*	*	*	*	*	*	*	*	*	*	*	*	*	*	*
!	!	!	!	!	!	!	!	!LO:DY:t=po:rj	!LO:TX:a:t=11	!	!LO:TX:a:t=11	!	!	!	!	!	!	!	!	!
4e-\	.	.	4b-\	.	2.dd\	.	8gg\	p	0.r	.	0.r	.	16dd'\LL]	.	8gg\	.	16dd\LL]	.	8gg\	.
.	.	.	.	.	.	.	.	.	.	.	.	.	16dd'\	.	.	.	(16dd\	.	.	.
.	.	.	.	.	.	.	4gg\	.	.	.	.	.	(16cc\	.	4gg\	.	16cc\	.	4gg\	.
.	.	.	.	.	.	.	.	.	.	.	.	.	16b-\JJ)	.	.	.	16b-\JJ)	.	.	.
4e-\	.	.	4e-\	.	.	.	.	.	.	.	.	.	16dd'\LL	.	.	.	16dd|>\LL	.	.	.
.	.	.	.	.	.	.	.	.	.	.	.	.	16dd'\	.	.	.	(16dd\	.	.	.
.	.	.	.	.	.	.	4gg\	.	.	.	.	.	(16cc\	.	4gg\	.	16cc\	.	4gg\	.
.	.	.	.	.	.	.	.	.	.	.	.	.	16b-\JJ)	.	.	.	16b-\JJ)	.	.	.
4e-\	.	.	4e-\	.	.	.	.	.	.	.	.	.	16dd'\LL	.	.	.	16dd|>\LL	.	.	.
.	.	.	.	.	.	.	.	.	.	.	.	.	16dd'\	.	.	.	(16dd\	.	.	.
.	.	.	.	.	.	.	8gg\	.	.	.	.	.	(16cc\	.	[8gg\	.	16cc\	.	[8gg\	.
.	.	.	.	.	.	.	.	.	.	.	.	.	16b-\JJ)	.	.	.	16b-\JJ)	.	.	.
!	!	!	!	!	!	!	!LO:LB:g=original	!	!	!	!	!	!	!	!	!	!	!	!	!
=28	=28	=28	=28	=28	=28	=28	=28	=28	=28	=28	=28	=28	=28	=28	=28	=28	=28	=28	=28	=28
*	*	*	*	*	*	*	*2\right	*	*	*	*	*	*	*	*	*	*	*	*	*
4An\	7	.	4e-\	.	8cc\	.	2.gg\	.	.	.	.	.	8cc\	.	16gg|>\LL]	.	8cc\	.	16gg\LL]	.
.	.	.	.	.	.	.	.	.	.	.	.	.	.	.	16gg|>\	.	.	.	(16gg\	.
.	.	.	.	.	4cc\	.	.	.	.	.	.	.	4cc\	.	(16ff\	.	4cc\	.	16ff\	.
.	.	.	.	.	.	.	.	.	.	.	.	.	.	.	16ee-\JJ)	.	.	.	16ee-\JJ)	.
4A\	.	.	4e-\	.	.	.	.	.	.	.	.	.	.	.	16gg|>\LL	.	.	.	16gg|>\LL	.
.	.	.	.	.	.	.	.	.	.	.	.	.	.	.	16gg|>\	.	.	.	(16gg\	.
.	.	.	.	.	4cc\	.	.	.	.	.	.	.	4cc\	.	(16ff\	.	4cc\	.	16ff\	.
.	.	.	.	.	.	.	.	.	.	.	.	.	.	.	16ee-\JJ)	.	.	.	16ee-\JJ)	.
4A\	.	.	4e-\	.	.	.	.	.	.	.	.	.	.	.	16gg|>\LL	.	.	.	16gg|>\LL	.
.	.	.	.	.	.	.	.	.	.	.	.	.	.	.	16gg|>\	.	.	.	(16gg\	.
.	.	.	.	.	8cc\	.	.	.	.	.	.	.	[8cc\	.	(16ff\	.	[8cc\	.	16ff\	.
.	.	.	.	.	.	.	.	.	.	.	.	.	.	.	16ee-\JJ)	.	.	.	16ee-\JJ)	.
=29	=29	=29	=29	=29	=29	=29	=29	=29	=29	=29	=29	=29	=29	=29	=29	=29	=29	=29	=29	=29
4d\	.	.	4d\	.	2.cc\	.	8ff\	.	.	.	.	.	16cc|>\LL]	.	8ff\	.	16cc\LL]	.	8ff\	.
.	.	.	.	.	.	.	.	.	.	.	.	.	(16cc\	.	.	.	(16cc\	.	.	.
.	.	.	.	.	.	.	4ff\	.	.	.	.	.	16b-\)	.	4ff\	.	16b-\	.	4ff\	.
.	.	.	.	.	.	.	.	.	.	.	.	.	16a|>\JJ	.	.	.	16an\JJ)	.	.	.
4d\	7	.	4d\	.	.	.	.	.	.	.	.	.	16cc|>\LL	.	.	.	16cc|>\LL	.	.	.
.	.	.	.	.	.	.	.	.	.	.	.	.	(16cc\	.	.	.	(16cc\	.	.	.
.	.	.	.	.	.	.	4ff\	.	.	.	.	.	16b-\)	.	4ff\	.	16b-\	.	4ff\	.
.	.	.	.	.	.	.	.	.	.	.	.	.	16anX|>\JJ	.	.	.	16a\JJ)	.	.	.
4d\	.	.	4d\	.	.	.	.	.	.	.	.	.	16cc|>\LL	.	.	.	16cc|>\LL	.	.	.
.	.	.	.	.	.	.	.	.	.	.	.	.	(16cc\	.	.	.	(16cc\	.	.	.
.	.	.	.	.	.	.	8ff\	.	.	.	.	.	16b-\)	.	[8ff\	.	16b-\	.	[8ff\	.
*	*	*	*	*	*	*	*	*	*	*	*	*	*	*	*	*	*	*	*custos:ff	*
.	.	.	.	.	.	.	.	.	.	.	.	.	16anX|>\JJ	.	.	.	16a\JJ)	.	.	.
!	!	!	!	!	!LO:LB:g=original	!	!	!	!	!	!	!	!	!	!LO:LB:g=original	!	!LO:LB:g=original	!	!LO:LB:g=original	!
=30	=30	=30	=30	=30	=30	=30	=30	=30	=30	=30	=30	=30	=30	=30	=30	=30	=30	=30	=30	=30
4G\	7	.	4d\	.	8b-/	.	2.ff\	.	.	.	.	.	8b-\	.	16ff|>\LL]	.	8b-/	.	16ff\LL]	.
.	.	.	.	.	.	.	.	.	.	.	.	.	.	.	(16ff\	.	.	.	(16ff\	.
.	.	.	.	.	4b-/	.	.	.	.	.	.	.	4b-\	.	16ee-\)	.	4b-/	.	16ee-\	.
.	.	.	.	.	.	.	.	.	.	.	.	.	.	.	16dd|>\JJ	.	.	.	16dd\JJ)	.
4G\	.	.	4d\	.	.	.	.	.	.	.	.	.	.	.	16ff|>\LL	.	.	.	16ff|>\LL	.
.	.	.	.	.	.	.	.	.	.	.	.	.	.	.	(16ff\	.	.	.	(16ff\	.
.	.	.	.	.	4b-/	.	.	.	.	.	.	.	4b-\	.	16ee-\)	.	4b-/	.	16ee-\	.
.	.	.	.	.	.	.	.	.	.	.	.	.	.	.	16dd|>\JJ	.	.	.	16dd\JJ)	.
4G\	.	.	4d\	.	.	.	.	.	.	.	.	.	.	.	16ff|>\LL	.	.	.	16ff|>\LL	.
.	.	.	.	.	.	.	.	.	.	.	.	.	.	.	(16ff\	.	.	.	(16ff\	.
.	.	.	.	.	8b-/	.	.	.	.	.	.	.	[<8b-\	.	16ee-\)	.	[8b-/	.	16ee-\	.
.	.	.	.	.	.	.	.	.	.	.	.	.	.	.	16dd|>\JJ	.	.	.	16dd\JJ)	.
!	!	!	!LO:LB:g=original	!	!	!	!	!	!	!	!	!	!	!	!	!	!	!	!	!
=31	=31	=31	=31	=31	=31	=31	=31	=31	=31	=31	=31	=31	=31	=31	=31	=31	=31	=31	=31	=31
4c\	7	.	4c/	.	2.b-/	.	8ee-\	.	0.r	.	0.r	.	16b-|</LL]	.	8ee-\	.	16b-|</LL]	.	8ee-\	.
.	.	.	.	.	.	.	.	.	.	.	.	.	(16b-/	.	.	.	(16b-/	.	.	.
.	.	.	.	.	.	.	4ee-\	.	.	.	.	.	16a/)	.	4ee-\	.	16an/	.	4ee-\	.
.	.	.	.	.	.	.	.	.	.	.	.	.	16g/JJ	.	.	.	16g/JJ)	.	.	.
4c\	.	.	4c/	.	.	.	.	.	.	.	.	.	16b-|</LL	.	.	.	16b-|</LL	.	.	.
.	.	.	.	.	.	.	.	.	.	.	.	.	(16b-/	.	.	.	(16b-/	.	.	.
.	.	.	.	.	.	.	4ee-\	.	.	.	.	.	16anX/)	.	4ee-\	.	16a/	.	4ee-\	.
.	.	.	.	.	.	.	.	.	.	.	.	.	16g/JJ	.	.	.	16g/JJ)	.	.	.
4c\	.	.	4c/	.	.	.	.	.	.	.	.	.	16b-|</LL	.	.	.	16b-|</LL	.	.	.
.	.	.	.	.	.	.	.	.	.	.	.	.	(16b-/	.	.	.	(16b-/	.	.	.
.	.	.	.	.	.	.	8ee-\	.	.	.	.	.	16anX/)	.	[8ee-\	.	16a/	.	[8ee-\	.
.	.	.	.	.	.	.	.	.	.	.	.	.	16g/JJ	.	.	.	16g/JJ)	.	.	.
=32	=32	=32	=32	=32	=32	=32	=32	=32	=32	=32	=32	=32	=32	=32	=32	=32	=32	=32	=32	=32
4F\	7 n	.	4c/	.	8an/	.	2.ee-\	.	.	.	.	.	16a|>\LL	.	16ee-|>\LL]	.	16an|>\LL	.	16ee-\LL]	.
.	.	.	.	.	.	.	.	.	.	.	.	.	(16cc\	.	16ee-|>\	.	(16cc\	.	(16ee-\	.
.	.	.	.	.	4a/	.	.	.	.	.	.	.	16b-\)	.	(16dd\	.	16b-\	.	16dd\	.
.	.	.	.	.	.	.	.	.	.	.	.	.	16a|>\JJ	.	16cc\JJ)	.	16a\JJ)	.	16cc\JJ)	.
4F\	.	.	4c/	.	.	.	.	.	.	.	.	.	16a|>\LL	.	16ee-|>\LL	.	16a|>\LL	.	16ee-|>\LL	.
.	.	.	.	.	.	.	.	.	.	.	.	.	(16cc\	.	16ee-|>\	.	(16cc\	.	(16ee-\	.
.	.	.	.	.	4a/	.	.	.	.	.	.	.	16b-\)	.	(16dd\	.	16b-\	.	16dd\	.
.	.	.	.	.	.	.	.	.	.	.	.	.	16a|>\JJ	.	16cc\JJ)	.	16a\JJ)	.	16cc\JJ)	.
4F\	.	.	4f\	.	.	.	.	.	.	.	.	.	16a|>\LL	.	16ee-|>\LL	.	16a|>\LL	.	16ee-|>\LL	.
.	.	.	.	.	.	.	.	.	.	.	.	.	(16cc\	.	16ee-|>\	.	(16cc\	.	(16ee-\	.
.	.	.	.	.	8a/	.	.	.	.	.	.	.	16b-\)	.	(16dd\	.	16b-\	.	16dd\	.
.	.	.	.	.	.	.	.	.	.	.	.	.	16a|>\JJ	.	16cc\JJ)	.	16a\JJ)	.	16cc\JJ)	.
!LO:LB:g=original	!	!	!	!	!	!	!	!	!	!	!	!	!	!	!	!	!	!	!	!
=33	=33	=33	=33	=33	=33	=33	=33	=33	=33	=33	=33	=33	=33	=33	=33	=33	=33	=33	=33	=33
8B-\L	.	.	8f\L	.	8b-\L	.	8dd\L	.	.	.	.	.	8b-\L	.	8dd\L	.	8b-\L	.	8dd\L	.
8B-\	.	.	8f\	.	8cc\J	.	8ff\J	.	.	.	.	.	8dd\J	.	8ff\J	.	8dd\J	.	8ff\J	.
.	.	.	.	.	8qqdd/	.	8qqff/	.	.	.	.	.	8qdd/	.	8qff/	.	8qdd/	.	8qqff/	.
8E-\	.	.	8g\	.	4.cc\	.	4.ee-\	.	.	.	.	.	4.cc\	.	4.ee-\	.	4.cc\	.	4.ee-\	.
8E-\	.	.	8g\	.	.	.	.	.	.	.	.	.	.	.	.	.	.	.	.	.
8E-\	.	.	8g\	.	.	.	.	.	.	.	.	.	.	.	.	.	.	.	.	.
8E-\J	.	.	8g\J	.	8b-\	.	8dd\	.	.	.	.	.	8b-\	.	8dd\	.	8b-\	.	8dd\	.
!	!	!	!	!	!	!	!	!	!	!	!	!	!	!	!LO:LB:g=original	!	!	!	!	!
=34	=34	=34	=34	=34	=34	=34	=34	=34	=34	=34	=34	=34	=34	=34	=34	=34	=34	=34	=34	=34
!	!	!	!	!	!LO:TX:t=P:problem=mixed beam	!	!	!	!	!	!	!	!	!	!	!	!	!	!	!
8F\L	.	.	4c\	.	8an/L	.	8cc\L	.	.	.	.	.	8a\L	.	8cc\L	.	8an\L	.	8cc\L	.
8F\	.	.	.	.	8ee-\J	.	8gg\J	.	.	.	.	.	8ee-\J	.	8gg\J	.	8ee-\J	.	8gg\J	.
.	.	.	.	.	8qqee-/	.	8qqgg/	.	.	.	.	.	8qee-/	.	8qgg/	.	8qee-/	.	8qqgg/	.
8F\	.	.	8r	.	4.dd\	.	4.ff\	.	.	.	.	.	4.dd\	.	4.ff\	.	4.dd\	.	4.ff\	.
8F\	.	.	8f\L	.	.	.	.	.	.	.	.	.	.	.	.	.	.	.	.	.
8An\	.	.	8f\	.	.	.	.	.	.	.	.	.	.	.	.	.	.	.	.	.
8A\J	.	.	8f\J	.	8cc\	.	8ee-\	.	.	.	.	.	8cc\	.	8ee-\	.	8cc\	.	8ee-\	.
!	!	!	!	!	!LO:LB:g=original	!	!	!	!	!	!	!	!	!	!	!	!LO:LB:g=original	!	!LO:LB:g=original	!
=35	=35	=35	=35	=35	=35	=35	=35	=35	=35	=35	=35	=35	=35	=35	=35	=35	=35	=35	=35	=35
8B-\	.	.	8f\	.	8b-/	.	8dd\	.	1.r	.	1.r	.	8b-\L	.	(8dd\L	.	8b-\L	.	8dd\L	.
8r	.	.	8r	.	8r	.	8r	.	.	.	.	.	(8dd\	.	8bb-\	.	(8dd\	.	(8bb-\	.
4r	.	.	4r	.	4r	.	4r	.	.	.	.	.	8cc\	.	8aa\	.	8cc\	.	8aan\	.
.	.	.	.	.	.	.	.	.	.	.	.	.	8ee-\	.	8gg\	.	8ee-\	.	8gg\	.
4r	.	.	4r	.	4r	.	4r	.	.	.	.	.	8dd\)	.	8ff\	.	8dd\)	.	8ff\	.
.	.	.	.	.	.	.	.	.	.	.	.	.	8cc\J	.	8ee-\J)	.	8cc\J	.	8ee-\J)	.
!	!	!	!	!	!	!	!	!	!	!	!	!	!LO:LB:g=original	!	!	!	!	!	!	!
=36	=36	=36	=36	=36	=36	=36	=36	=36	=36	=36	=36	=36	=36	=36	=36	=36	=36	=36	=36	=36
!	!	!	!LO:TX:a:t=2	!	!LO:TX:a:t=2	!	!LO:TX:a:t=2	!	!	!	!	!	!	!	!	!	!	!	!	!
2.r	.	.	1.r	.	1.r	.	1.r	.	.	.	.	.	(8b-/L	.	(8dd\L	.	(8b-/L	.	(8dd\L	.
.	.	.	.	.	.	.	.	.	.	.	.	.	8a/	.	8cc\	.	8an/	.	8cc\	.
.	.	.	.	.	.	.	.	.	.	.	.	.	8g/	.	8ee-\	.	8g/	.	8ee-\	.
.	.	.	.	.	.	.	.	.	.	.	.	.	8f/	.	8dd\	.	8f/	.	8dd\	.
.	.	.	.	.	.	.	.	.	.	.	.	.	8e-/)	.	8gg\	.	8e-/)	.	8gg\	.
.	.	.	.	.	.	.	.	.	.	.	.	.	8d/J	.	8ff\J)	.	8d/J	.	8ff\J)	.
=37	=37	=37	=37	=37	=37	=37	=37	=37	=37	=37	=37	=37	=37	=37	=37	=37	=37	=37	=37	=37
4E-\	.	.	.	.	.	.	.	.	2.r	.	2.r	.	8cc\L	.	8ee-\L	.	8cc\L	.	8ee-\L	.
.	.	.	.	.	.	.	.	.	.	.	.	.	8b-\J	.	8dd\J	.	8b-\J	.	8dd\J	.
4F\	.	.	.	.	.	.	.	.	.	.	.	.	2at/	.	2ccTT\	.	2ant/	.	2ccT\	.
4FF/	.	.	.	.	.	.	.	.	.	.	.	.	.	.	.	.	.	.	.	.
!	!	!	!	!	!	!	!LO:LB:g=original	!	!	!	!	!	!	!	!	!	!	!	!	!
=38	=38	=38	=38	=38	=38	=38	=38	=38	=38	=38	=38	=38	=38	=38	=38	=38	=38	=38	=38	=38
!	!	!LO:DY:a:t=forte	!	!LO:DY:a:t=F	!	!LO:DY:a:t=For:rj	!	!LO:DY:a:t=F	!	!LO:DY:a:t=F	!	!LO:DY:a:t=Forte.	!	!	!	!	!	!	!	!
8.BB-/L	.	f	8.B-\L	f	8.b-\L	f	8.b-\L	f	8.b-/L	f	8.ff\L	f	4b-\	.	4b-\	.	4b-/	.	4b-\	.
16D/K	.	.	16d\K	.	16dd\K	.	16dd\K	.	16b-/K	.	16ff\K	.	.	.	.	.	.	.	.	.
8.D/	.	.	8.d\	.	8.dd\	.	8.dd\	.	8.b-/	.	8.ff\	.	4r	.	4r	.	4r	.	4r	.
16F/K	.	.	16f\K	.	16ff\K	.	16ff\K	.	16b-/K	.	16ff\K	.	.	.	.	.	.	.	.	.
8.F/	.	.	8.f\	.	8.ff\	.	8.ff\	.	8.b-/	.	8.ff\	.	4r	.	4r	.	4r	.	4r	.
16B-/Jk	.	.	16b-\Jk	.	16bb-\Jk	.	16bb-\Jk	.	16b-/Jk	.	16ff\Jk	.	.	.	.	.	.	.	.	.
!	!	!	!	!	!	!	!	!	!LO:LB:g=original	!	!	!	!	!	!	!	!	!	!	!
=39	=39	=39	=39	=39	=39	=39	=39	=39	=39	=39	=39	=39	=39	=39	=39	=39	=39	=39	=39	=39
!	!	!	!	!	!	!	!	!	!	!	!	!	!LO:TX:a:t=9.	!	!LO:TX:a:t=9.	!	!LO:TX:a:t=9.	!	!LO:TX:a:t=9.	!
4B-\	.	.	4b-\	.	8bb-\	.	8bb-\	.	8b-/	.	8ff\	.	0.r	.	0.r	.	0.r	.	0.r	.
.	.	.	.	.	4d/	.	4f/	.	4b-/	.	4ff\	.	.	.	.	.	.	.	.	.
4BB-/	.	.	4B-/	.	.	.	.	.	.	.	.	.	.	.	.	.	.	.	.	.
.	.	.	.	.	4f/	.	4b-\	.	4ff\	.	4bb-\	.	.	.	.	.	.	.	.	.
4BB-/	.	.	4f\	.	.	.	.	.	.	.	.	.	.	.	.	.	.	.	.	.
.	.	.	.	.	8b-/	.	8dd\	.	8ff\	.	8bb-\	.	.	.	.	.	.	.	.	.
=40	=40	=40	=40	=40	=40	=40	=40	=40	=40	=40	=40	=40	=40	=40	=40	=40	=40	=40	=40	=40
4F\	4	.	4f\	.	4b-M/	.	4ddm\	.	4ff\	.	4bb-\	.	.	.	.	.	.	.	.	.
4F\	n	.	4f\	.	4an/	.	4cc\	.	4ff\	.	4aaX\	.	.	.	.	.	.	.	.	.
4r	.	.	4r	.	4r	.	4r	.	4r	.	4r	.	.	.	.	.	.	.	.	.
!LO:LB:g=original	!	!	!LO:LB:g=original	!	!	!	!	!	!	!	!	!	!	!	!	!	!	!	!	!
=41	=41	=41	=41	=41	=41	=41	=41	=41	=41	=41	=41	=41	=41	=41	=41	=41	=41	=41	=41	=41
!	!	!	!	!	!	!	!	!	!LO:TX:a:t=6.	!	!LO:TX:a:t=6	!	!	!	!	!	!	!	!	!
4F\	.	.	4f\	.	8an\	.	8cc\	.	0.r	.	0.r	.	.	.	.	.	.	.	.	.
.	.	.	.	.	4cc\	.	4ff\	.	.	.	.	.	.	.	.	.	.	.	.	.
4F\	.	.	4an\	.	.	.	.	.	.	.	.	.	.	.	.	.	.	.	.	.
.	.	.	.	.	4ff\	.	4aan\	.	.	.	.	.	.	.	.	.	.	.	.	.
4F\	.	.	4f\	.	.	.	.	.	.	.	.	.	.	.	.	.	.	.	.	.
.	.	.	.	.	[8aan\	.	[8ccc\	.	.	.	.	.	.	.	.	.	.	.	.	.
!	!	!	!	!	!LO:LB:g=original	!	!	!	!	!	!	!	!	!	!	!	!	!	!	!
=42	=42	=42	=42	=42	=42	=42	=42	=42	=42	=42	=42	=42	=42	=42	=42	=42	=42	=42	=42	=42
8F\L	.	.	8f\L	.	8aa\L]	.	8ccc\L]	.	.	.	.	.	.	.	.	.	.	.	.	.
8F\	.	.	8f\	.	8cc\	.	8ee-\	.	.	.	.	.	.	.	.	.	.	.	.	.
8F\	.	.	8f\	.	8cc\	.	8ee-\	.	.	.	.	.	.	.	.	.	.	.	.	.
8F\	.	.	8f\	.	8cc\	.	8ee-\	.	.	.	.	.	.	.	.	.	.	.	.	.
8F\	.	.	8f\	.	8cc\	.	8ee-\	.	.	.	.	.	.	.	.	.	.	.	.	.
8F\J	.	.	8f\J	.	8cc\J	.	8ee-\J	.	.	.	.	.	.	.	.	.	.	.	.	.
=43	=43	=43	=43	=43	=43	=43	=43	=43	=43	=43	=43	=43	=43	=43	=43	=43	=43	=43	=43	=43
4F\	.	.	4f\	.	4ccM\	.	4ee-M\	.	.	.	.	.	0.r	.	0.r	.	0.r	.	0.r	.
!LO:TX:t=P:problem=mixed beam	!	!	!	!	!	!	!	!	!	!	!	!	!	!	!	!	!	!	!	!
8B-\L	.	.	4f\	.	4b-\	.	4dd\	.	.	.	.	.	.	.	.	.	.	.	.	.
8BB-/	.	.	.	.	.	.	.	.	.	.	.	.	.	.	.	.	.	.	.	.
8BB-/	.	.	4f\	.	4b-\	.	4dd\	.	.	.	.	.	.	.	.	.	.	.	.	.
8BB-/J	.	.	.	.	.	.	.	.	.	.	.	.	.	.	.	.	.	.	.	.
=44	=44	=44	=44	=44	=44	=44	=44	=44	=44	=44	=44	=44	=44	=44	=44	=44	=44	=44	=44	=44
8F\L	.	.	8f\L	.	8an/L	.	8cc\L	.	.	.	.	.	.	.	.	.	.	.	.	.
8F\	.	.	8f\	.	8a/J	.	8cc\J	.	.	.	.	.	.	.	.	.	.	.	.	.
8F\	.	.	8f\	.	8a/	.	8cc\	.	.	.	.	.	.	.	.	.	.	.	.	.
8F\	.	.	8f\	.	4cc\	.	4ee-\	.	.	.	.	.	.	.	.	.	.	.	.	.
8F\	.	.	8f\	.	.	.	.	.	.	.	.	.	.	.	.	.	.	.	.	.
8F\J	.	.	8f\J	.	16b-\LL	.	(16dd\LL	.	.	.	.	.	.	.	.	.	.	.	.	.
.	.	.	.	.	16a\JJ	.	16cc\JJ)	.	.	.	.	.	.	.	.	.	.	.	.	.
*	*	*	*	*	*	*	*custos:dd	*	*	*	*	*	*	*	*	*	*	*	*	*
!	!	!	!	!	!	!	!LO:LB:g=original	!	!	!	!	!	!	!	!	!	!	!	!	!
=45	=45	=45	=45	=45	=45	=45	=45	=45	=45	=45	=45	=45	=45	=45	=45	=45	=45	=45	=45	=45
4B-\	.	.	4f\	.	8b-\L	.	8dd\L	.	1.r	.	1.r	.	.	.	.	.	.	.	.	.
.	.	.	.	.	8bb-\	.	8ddd\	.	.	.	.	.	.	.	.	.	.	.	.	.
4r	.	.	4r	.	8aan\	.	8ccc\	.	.	.	.	.	.	.	.	.	.	.	.	.
.	.	.	.	.	8gg\	.	8bb-\	.	.	.	.	.	.	.	.	.	.	.	.	.
4r	.	.	4r	.	8ff\	.	8aan\	.	.	.	.	.	.	.	.	.	.	.	.	.
.	.	.	.	.	8ee-\J	.	8gg\J	.	.	.	.	.	.	.	.	.	.	.	.	.
=46	=46	=46	=46	=46	=46	=46	=46	=46	=46	=46	=46	=46	=46	=46	=46	=46	=46	=46	=46	=46
!	!	!	!LO:TX:a:t=1	!	!	!	!	!	!	!	!	!	!	!	!	!	!	!	!	!
4B-\	.	.	2.r	.	8dd\L	.	8ff\L	.	.	.	.	.	.	.	.	.	.	.	.	.
.	.	.	.	.	8ee-\J	.	8gg\J	.	.	.	.	.	.	.	.	.	.	.	.	.
.	.	.	.	.	8qqdd/	.	8qqff/	.	.	.	.	.	.	.	.	.	.	.	.	.
8c\L	.	.	.	.	2ccT\	.	2ee-\	.	.	.	.	.	.	.	.	.	.	.	.	.
8F\	.	.	.	.	.	.	.	.	.	.	.	.	.	.	.	.	.	.	.	.
8G\	.	.	.	.	.	.	.	.	.	.	.	.	.	.	.	.	.	.	.	.
8An\J	.	.	.	.	.	.	.	.	.	.	.	.	.	.	.	.	.	.	.	.
=47	=47	=47	=47	=47	=47	=47	=47	=47	=47	=47	=47	=47	=47	=47	=47	=47	=47	=47	=47	=47
*	*	*	*	*	*	*	*tuplet	*	*	*	*	*	*	*	*	*	*	*	*	*
!	!	!	!	!	!	!	!LO:TUP:a:problem=klamra łukowa	!	!	!	!	!	!	!	!	!	!	!	!	!
4B-\	.	.	4f\	.	4b-\	.	12dd\L	.	4b-/	.	8ff\L	.	2.r	.	2.r	.	2.r	.	2.r	.
.	.	.	.	.	.	.	12cc\	.	.	.	.	.	.	.	.	.	.	.	.	.
.	.	.	.	.	.	.	.	.	.	.	8bb-\J	.	.	.	.	.	.	.	.	.
.	.	.	.	.	.	.	12b-\J	.	.	.	.	.	.	.	.	.	.	.	.	.
4F\	4	.	4f\	.	4b-\	.	4dd\	.	4ff\	.	4bb-\	.	.	.	.	.	.	.	.	.
4FF/	n	.	4f\	.	4an\	.	4cc\	.	4ff\	.	4aaXt\	.	.	.	.	.	.	.	.	.
!	!	!	!	!	!LO:LB:g=original	!	!	!	!	!	!	!	!	!	!LO:LB:g=original	!	!	!	!	!
=48	=48	=48	=48	=48	=48	=48	=48	=48	=48	=48	=48	=48	=48	=48	=48	=48	=48	=48	=48	=48
*	*	*	*2\right	*	*	*	*	*	*	*	*	*	*2\right	*	*	*	*2\right	*	*	*
!	!	!	!	!	!	!	!LO:TX:a:i:t=S.	!	!	!	!	!	!LO:TX:a:t=Solo	!	!LO:TX:a:i:t=Solo	!	!LO:TX:a:i:t=S&colon;	!	!LO:TX:a:i:t=S.	!
2BB-/	.	.	2f\	.	4b-\	.	8.b-\L	.	4b-/	.	4bb-\	.	[<2.dd\	.	[<2.bb-\	.	[<2.dd\	.	[<2.bb-\	.
.	.	.	.	.	.	.	16dd\K	.	.	.	.	.	.	.	.	.	.	.	.	.
.	.	.	.	.	4r	.	8.dd\	.	4r	.	4r	.	.	.	.	.	.	.	.	.
.	.	.	.	.	.	.	16ff\K	.	.	.	.	.	.	.	.	.	.	.	.	.
4r	.	.	4r	.	4r	.	8.ff\	.	4r	.	4r	.	.	.	.	.	.	.	.	.
.	.	.	.	.	.	.	16bb-\Jk	.	.	.	.	.	.	.	.	.	.	.	.	.
!LO:LB:g=original	!	!	!	!	!	!	!	!	!	!	!LO:LB:g=original	!	!	!	!	!	!	!	!	!
=49	=49	=49	=49	=49	=49	=49	=49	=49	=49	=49	=49	=49	=49	=49	=49	=49	=49	=49	=49	=49
!	!	!LO:DY:b:t=piano	!	!LO:DY:b:t=po	!	!LO:DY:b:t=po:rj	!	!	!LO:TX:a:t=4	!	!	!	!	!	!	!	!	!	!	!
2BB-/	.	p	2f\	p	8.b-\L	p	8.bb-\L	.	0.r	.	0.r	.	4dd\]	.	4bb-\]	.	4dd\]	.	4bb-\]	.
.	.	.	.	.	16dd\K	.	16b-\Jk	.	.	.	.	.	.	.	.	.	.	.	.	.
.	.	.	.	.	8.dd\	.	4b-\	.	.	.	.	.	4dd\	.	4ff\	.	4dd\	.	4ff\	.
.	.	.	.	.	16ff\K	.	.	.	.	.	.	.	.	.	.	.	.	.	.	.
4r	.	.	4r	.	8.ff\	.	4r	.	.	.	.	.	4dd\	.	4ff\	.	4dd\	.	4ff\	.
.	.	.	.	.	16bb-\Jk	.	.	.	.	.	.	.	.	.	.	.	.	.	.	.
!	!	!	!LO:LB:g=original	!	!	!	!	!	!	!	!	!	!	!	!	!	!	!	!	!
=50	=50	=50	=50	=50	=50	=50	=50	=50	=50	=50	=50	=50	=50	=50	=50	=50	=50	=50	=50	=50
!	!	!	!	!LO:DY:b:t=for:rj	!	!	!LO:TX:a:t=1	!	!	!	!	!	!	!	!	!	!	!	!	!
8.BB-/L	6 4	.	8.B-\L	f	8.bb-\L	.	2.r	.	.	.	.	.	8ee-\L	.	8gg\L	.	8ee-\L	.	8gg\L	.
.	.	.	.	.	.	.	.	.	.	.	.	.	8dd\J	.	8ff\J	.	8dd\J	.	8ff\J	.
16D/K	6_	.	16d\K	.	16b-\Jk	.	.	.	.	.	.	.	.	.	.	.	.	.	.	.
8.D/	.	.	8.d\	.	4b-\	.	.	.	.	.	.	.	[2dd\	.	[2ff\	.	[2dd\	.	[2ff\	.
16F/K	x	.	16f\K	.	.	.	.	.	.	.	.	.	.	.	.	.	.	.	.	.
8.F/	.	.	8.f\	.	4r	.	.	.	.	.	.	.	.	.	.	.	.	.	.	.
16B-/Jk	.	.	16b-\Jk	.	.	.	.	.	.	.	.	.	.	.	.	.	.	.	.	.
!	!	!	!	!	!	!	!	!	!	!	!	!	!	!	!	!	!LO:LB:g=original	!	!LO:LB:g=original	!
=51	=51	=51	=51	=51	=51	=51	=51	=51	=51	=51	=51	=51	=51	=51	=51	=51	=51	=51	=51	=51
8B-\L	.	.	4b-\	.	(4dd\	.	(4ff\	.	.	.	.	.	4dd\]	.	4ff\]	.	4dd\]	.	4ff\]	.
8B-\	.	.	.	.	.	.	.	.	.	.	.	.	.	.	.	.	.	.	.	.
8E-\	.	.	4g\	.	4cc\	.	4ee-\	.	.	.	.	.	4cc\	.	4ee-\	.	4cc\	.	4ee-\	.
8E-\	.	.	.	.	.	.	.	.	.	.	.	.	.	.	.	.	.	.	.	.
8E-\	.	.	4g\	.	4b-\)	.	4dd\)	.	.	.	.	.	4b-\	.	4dd\	.	4b-\	.	4dd\	.
8E-\J	.	.	.	.	.	.	.	.	.	.	.	.	.	.	.	.	.	.	.	.
!	!	!	!	!	!	!	!LO:LB:g=original	!	!	!	!	!	!LO:LB:g=original	!	!	!	!	!	!	!
=52	=52	=52	=52	=52	=52	=52	=52	=52	=52	=52	=52	=52	=52	=52	=52	=52	=52	=52	=52	=52
8F\L	.	.	8c\	.	8an\L	.	8cc\L	.	.	.	.	.	8a\L	.	8cc\L	.	8an\L	.	8cc\L	.
8F\	.	.	8r	.	8ee-\J	.	8gg\J	.	.	.	.	.	8ee-\J	.	8gg\J	.	8ee-\J	.	8gg\J	.
.	.	.	.	.	8qqee-/	.	8qqgg/	.	.	.	.	.	8qee-/	.	8qgg/	.	8qqee-/	.	8qqgg/	.
8F\	.	.	4r	.	4.dd\	.	4.ff\	.	.	.	.	.	4.dd\	.	4.ff\	.	4.dd\	.	4.ff\	.
8F\	.	.	.	.	.	.	.	.	.	.	.	.	.	.	.	.	.	.	.	.
8F\	.	.	4r	.	.	.	.	.	.	.	.	.	.	.	.	.	.	.	.	.
8F\J	.	.	.	.	8cc\	.	8ee-\	.	.	.	.	.	8cc\	.	8ee-\	.	8cc\	.	8ee-\	.
=53	=53	=53	=53	=53	=53	=53	=53	=53	=53	=53	=53	=53	=53	=53	=53	=53	=53	=53	=53	=53
!	!	!LO:DY:b:t=for:rj	!	!LO:DY:b:t=for.:rj	!	!LO:DY:b:t=forte	!	!LO:DY:a:t=forte	!	!	!	!	!	!	!	!	!	!	!	!
8.B-\L	.	f	8.f\L	f	8.b-/L	f	8.dd\L	f	8.b-/L	.	8.ff\L	.	[2.b-\	.	[2.dd\	.	[2.b-\	.	[2.dd\	.
16F\K	.	.	16d\K	.	16f/K	.	16b-\K	.	16b-/K	.	16ff\K	.	.	.	.	.	.	.	.	.
8.F\	6 4_	.	8.d\	.	8.f/	.	8.b-\	.	8.b-/	.	8.ff\	.	.	.	.	.	.	.	.	.
16D\K	.	.	16B-\K	.	16d/K	.	16f\K	.	16b-/K	.	16ff\K	.	.	.	.	.	.	.	.	.
8.D\	x	.	8.B-\	.	8.d/	.	8.f\	.	8.b-/	.	8.ff\	.	.	.	.	.	.	.	.	.
16BB-\Jk	.	.	16F\Jk	.	16B-/Jk	.	16d\Jk	.	16b-/Jk	.	16ff\Jk	.	.	.	.	.	.	.	.	.
!	!	!	!	!	!LO:LB:g=original	!	!	!	!	!	!	!	!	!	!	!	!	!	!	!
=54	=54	=54	=54	=54	=54	=54	=54	=54	=54	=54	=54	=54	=54	=54	=54	=54	=54	=54	=54	=54
!LO:TX:t=P:problem=mixed beam	!	!LO:DY:b:t=po	!	!	!	!	!	!	!	!	!	!	!	!	!	!	!	!	!	!
8BB-/L	.	p	4F/	.	4B-/	.	4d/	.	4b-/	.	4ff\	.	8b-\L]	.	8dd\L]	.	8b-\L]	.	8dd\L]	.
8BB-/	.	.	.	.	.	.	.	.	.	.	.	.	16cc\L	.	16ee-\L	.	16cc\L	.	16ee-\L	.
.	.	.	.	.	.	.	.	.	.	.	.	.	16dd\JJ	.	16ff\JJ	.	16dd\JJ	.	16ff\JJ	.
.	.	.	.	.	.	.	.	.	.	.	.	.	8qdd/	.	8qff/	.	8qqdd/	.	8qqff/	.
8E-\	6	.	4r	.	4r	.	4r	.	4r	.	4r	.	4.cc\	.	4.ee-\	.	4.cc\	.	4.ee-\	.
8E-\	.	.	.	.	.	.	.	.	.	.	.	.	.	.	.	.	.	.	.	.
8E-\	.	.	4r	.	4r	.	4r	.	4r	.	4r	.	.	.	.	.	.	.	.	.
8E-\J	.	.	.	.	.	.	.	.	.	.	.	.	8b-\	.	8dd\	.	8b-\	.	8dd\	.
!	!	!	!	!	!	!	!	!	!	!	!	!	!	!	!LO:LB:g=original	!	!	!	!	!
=55	=55	=55	=55	=55	=55	=55	=55	=55	=55	=55	=55	=55	=55	=55	=55	=55	=55	=55	=55	=55
!	!	!	!LO:TX:a:t=2	!	!LO:TX:a:t=2	!	!LO:TX:a:t=2	!	!LO:TX:a:t=9.	!	!LO:TX:a:t=9	!	!	!	!	!	!	!	!	!
8F\L	n	.	1.r	.	1.r	.	1.r	.	0.r	.	0.r	.	8a\L	.	8cc\L	.	8an\L	.	8cc\L	.
8F\	.	.	.	.	.	.	.	.	.	.	.	.	16b-\L	.	16dd\L	.	16b-\L	.	16dd\L	.
.	.	.	.	.	.	.	.	.	.	.	.	.	16cc\JJ	.	16ee-\JJ	.	16cc\JJ	.	16ee-\JJ	.
.	.	.	.	.	.	.	.	.	.	.	.	.	8qcc/	.	8qee-/	.	8qqcc/	.	8qqee-/	.
8D\	6	.	.	.	.	.	.	.	.	.	.	.	4.b-\	.	4.dd\	.	4.b-\	.	4.dd\	.
8D\	.	.	.	.	.	.	.	.	.	.	.	.	.	.	.	.	.	.	.	.
8D\	.	.	.	.	.	.	.	.	.	.	.	.	.	.	.	.	.	.	.	.
8D\J	.	.	.	.	.	.	.	.	.	.	.	.	8anX\	.	8cc\	.	8an\	.	8cc\	.
!LO:LB:g=original	!	!	!	!	!	!	!	!	!	!	!	!	!	!	!	!	!	!	!	!
=56	=56	=56	=56	=56	=56	=56	=56	=56	=56	=56	=56	=56	=56	=56	=56	=56	=56	=56	=56	=56
8E-\L	3	.	.	.	.	.	.	.	.	.	.	.	8g/L	.	8b-\L	.	8g/L	.	8b-\L	.
8E-\	.	.	.	.	.	.	.	.	.	.	.	.	16a-/L	.	16cc\L	.	16a-/L	.	16cc\L	.
.	.	.	.	.	.	.	.	.	.	.	.	.	16b-/JJ	.	16dd\JJ	.	16b-/JJ	.	16dd\JJ	.
.	.	.	.	.	.	.	.	.	.	.	.	.	8qb-/	.	8qdd/	.	8qqb-/	.	8qqdd/	.
8C\	6	.	.	.	.	.	.	.	.	.	.	.	4.a-/	.	4.cc\	.	4.a-/	.	4.cc\	.
8C\	.	.	.	.	.	.	.	.	.	.	.	.	.	.	.	.	.	.	.	.
8C\	.	.	.	.	.	.	.	.	.	.	.	.	.	.	.	.	.	.	.	.
8C\J	.	.	.	.	.	.	.	.	.	.	.	.	8g/	.	8b-\	.	8g/	.	8b-\	.
!	!	!	!	!	!	!	!	!	!	!	!	!	!	!	!	!	!LO:LB:g=original	!	!LO:LB:g=original	!
=57	=57	=57	=57	=57	=57	=57	=57	=57	=57	=57	=57	=57	=57	=57	=57	=57	=57	=57	=57	=57
8D\L	#	.	4d\	.	4f#X/	.	4an/	.	.	.	.	.	8f#X/L	.	8a\L	.	8f#X/L	.	8an/L	.
8D\	.	.	.	.	.	.	.	.	.	.	.	.	8f#/J	.	8a\J	.	8f#/J	.	8a/J	.
8D\	.	.	4r	.	4r	.	4r	.	.	.	.	.	8f#/	.	8a\	.	8f#/	.	8a/	.
8D\	6 4	.	.	.	.	.	.	.	.	.	.	.	4g/	.	4b-\	.	4g/	.	4b-/	.
8D\	.	.	4r	.	4r	.	4r	.	.	.	.	.	.	.	.	.	.	.	.	.
8D\J	.	.	.	.	.	.	.	.	.	.	.	.	16f/LL	.	16a\LL	.	16f#/LL	.	16a/LL	.
!	!	!	!	!	!	!	!	!	!	!	!	!	!	!	!	!	!LO:TX:b:t=P:problem=♮ below	!	!	!
.	.	.	.	.	.	.	.	.	.	.	.	.	16e-/JJ	.	16g\JJ	.	16en/JJ	.	16g/JJ	.
!	!	!	!	!	!	!	!	!	!	!	!	!	!LO:LB:g=original	!	!	!	!	!	!	!
=58	=58	=58	=58	=58	=58	=58	=58	=58	=58	=58	=58	=58	=58	=58	=58	=58	=58	=58	=58	=58
!	!	!	!	!	!	!	!LO:SIC:v:o=8a-/L	!LO:DY:t=poco forte.	!	!	!	!	!	!	!	!	!	!	!LO:SIC:v:o=4a-/	!
8D\L	.	.	8d\L	.	8f#X/L	.	8an/L	f	.	.	.	.	4f#X/	.	4a\	.	4f#X/	.	4an/	.
!	!	!	!	!	!	!	!LO:SIC:v:o=8a-/J	!	!	!	!	!	!	!	!	!	!	!	!	!
8D\	.	.	8d\	.	8f#/J	.	8a/J	.	.	.	.	.	.	.	.	.	.	.	.	.
!	!	!	!	!	!	!	!LO:SIC:v:o=8a-/	!	!	!	!	!	!	!	!	!	!	!	!	!
8D\	.	.	8d\	.	8f#/	.	8a/	.	.	.	.	.	4r	.	4d/	.	4r	.	4d/	.
8D\	.	.	8d\	.	4g/	.	4b-/	.	.	.	.	.	.	.	.	.	.	.	.	.
8D\	.	.	8d\	.	.	.	.	.	.	.	.	.	4r	.	4r	.	4r	.	4r	.
!	!	!	!	!	!	!	!LO:SIC:v:o=16a-/LL	!	!	!	!	!	!	!	!	!	!	!	!	!
8D\J	.	.	8d\J	.	16f#X/LL	.	16a/LL	.	.	.	.	.	.	.	.	.	.	.	.	.
.	.	.	.	.	16e-/JJ	.	16g/JJ	.	.	.	.	.	.	.	.	.	.	.	.	.
=59	=59	=59	=59	=59	=59	=59	=59	=59	=59	=59	=59	=59	=59	=59	=59	=59	=59	=59	=59	=59
!	!	!	!	!	!	!	!LO:SIC:v:o=4a-/	!	!	!	!	!	!	!	!	!	!	!	!	!
8D\L	.	.	4d\	.	4f#X/	.	4an/	.	0.r	.	0.r	.	8ff#X\L	.	8aa\L	.	8ff#X\L	.	8aan\L	.
8D\	.	.	.	.	.	.	.	.	.	.	.	.	8ff#\J	.	8aa\J	.	8ff#\J	.	8aa\J	.
8D\	.	.	4r	.	4r	.	4r	.	.	.	.	.	8ff#\	.	8aa\	.	8ff#\	.	8aa\	.
8D\	.	.	.	.	.	.	.	.	.	.	.	.	4gg\	.	4bb-\	.	4gg\	.	4bb-\	.
8D\	.	.	4r	.	4r	.	4r	.	.	.	.	.	.	.	.	.	.	.	.	.
8D\J	.	.	.	.	.	.	.	.	.	.	.	.	16ff\LL	.	16aa\LL	.	16ff#\LL	.	16aa\LL	.
!	!	!	!	!	!	!	!	!	!	!	!	!	!	!	!	!	!LO:TX:a:t=P:problem=♮ above	!	!	!
.	.	.	.	.	.	.	.	.	.	.	.	.	16ee-\JJ	.	16gg\JJ	.	16een\JJ	.	16gg\JJ	.
!	!	!	!LO:LB:g=original	!	!	!	!LO:LB:g=original	!	!	!	!	!	!	!	!LO:LB:g=original	!	!	!	!	!
=60	=60	=60	=60	=60	=60	=60	=60	=60	=60	=60	=60	=60	=60	=60	=60	=60	=60	=60	=60	=60
!	!	!	!	!	!	!	!	!	!	!	!	!	!LO:SIC:v:o=4ff\	!	!	!	!LO:SIC:v:o=4ff\	!	!LO:SIC:v:o=4aa-\	!
8D\L	.	.	8d\L	.	8ff#X\L	.	8aan\L	.	.	.	.	.	4ff#\	.	4aa\	.	4ff#\	.	4aan\	.
8D\	.	.	8d\	.	8ff#\J	.	8aa\J	.	.	.	.	.	.	.	.	.	.	.	.	.
8D\	.	.	8d\	.	8ff#\	.	8aa\	.	.	.	.	.	8a/L	.	2dd\	.	8an/L	.	2dd\	.
8D\	.	.	8d\	.	4gg\	.	4bb-\	.	.	.	.	.	8g/	.	.	.	8g/	.	.	.
8D\	.	.	8d\	.	.	.	.	.	.	.	.	.	8g/	.	.	.	8g/	.	.	.
8D\J	.	.	8d\J	.	16ff#\LL	.	16aa\LL	.	.	.	.	.	8a/J	.	.	.	8a/J	.	.	.
.	.	.	.	.	16ee-\JJ	.	16gg\JJ	.	.	.	.	.	.	.	.	.	.	.	.	.
!	!	!	!	!	!LO:LB:g=original	!	!	!	!	!	!	!	!	!	!	!	!	!	!	!
=61	=61	=61	=61	=61	=61	=61	=61	=61	=61	=61	=61	=61	=61	=61	=61	=61	=61	=61	=61	=61
!LO:TX:t=P:problem=mixed beam	!	!	!	!	!	!	!	!	!	!	!	!	!	!	!	!	!	!	!	!
8D\L	.	.	4d\	.	4dd\	.	8ff#X\L	.	.	.	.	.	8a/L	.	8cc\L	.	8an/L	.	8cc\L	.
8G\	.	.	.	.	.	.	8gg\J	.	.	.	.	.	8g/J	.	8b-\J	.	8g/J	.	8b-\J	.
.	.	.	.	.	8qqg/	.	8qqb-/	.	.	.	.	.	8qg/	.	.	.	8qg/	.	.	.
8d\	.	.	2d\	.	2f#Xt/	.	2ant/	.	.	.	.	.	2f#Xt/	.	2at\	.	2f#Xt/	.	2ant/	.
8d\	.	.	.	.	.	.	.	.	.	.	.	.	.	.	.	.	.	.	.	.
8D/	.	.	.	.	.	.	.	.	.	.	.	.	.	.	.	.	.	.	.	.
8D/J	.	.	.	.	.	.	.	.	.	.	.	.	.	.	.	.	.	.	.	.
=62	=62	=62	=62	=62	=62	=62	=62	=62	=62	=62	=62	=62	=62	=62	=62	=62	=62	=62	=62	=62
!	!	!LO:DY:b:t=for	!	!LO:DY:b:t=for:rj	!	!LO:DY:b:t=for:rj	!	!LO:DY:t=for:rj	!	!	!	!	!	!	!	!	!	!	!	!
8.GG/L	.	f	8.d\L	f	8.G/L	f	8.G/L	f	.	.	.	.	2g/	.	2g/	.	2g/	.	2g/	.
16BB-/K	.	.	16B-\K	.	16B-/K	.	16B-/K	.	.	.	.	.	.	.	.	.	.	.	.	.
8.BB-/	.	.	8.B-\	.	8.B-/	.	8.B-/	.	.	.	.	.	.	.	.	.	.	.	.	.
16D/K	6 4_	.	16d\K	.	16d/K	.	16d/K	.	.	.	.	.	.	.	.	.	.	.	.	.
8.D/	.	.	8.d\	.	8.d/	.	8.d/	.	.	.	.	.	4r	.	4r	.	4r	.	4r	.
16G/Jk	x	.	16g\Jk	.	16g/Jk	.	16g/Jk	.	.	.	.	.	.	.	.	.	.	.	.	.
!LO:LB:g=original	!	!	!	!	!	!	!	!	!	!	!	!	!	!	!	!	!LO:LB:g=original	!	!	!
=63	=63	=63	=63	=63	=63	=63	=63	=63	=63	=63	=63	=63	=63	=63	=63	=63	=63	=63	=63	=63
4G\	.	.	4g\	.	4g/	.	4g/	.	2.r	.	2.r	.	8g/L	.	8b-\L	.	8g/L	.	8b-\L	.
.	.	.	.	.	.	.	.	.	.	.	.	.	8g/J	.	8b-\J	.	8g/J	.	8b-\J	.
8r	.	.	4e-X\	.	4r	.	4r	.	.	.	.	.	8g/	.	8b-\	.	8g/	.	8b-\	.
!	!	!LO:DY:b:t=po:rj	!	!	!	!	!	!	!	!	!	!	!	!	!	!	!	!	!	!
8E-X\L	.	p	.	.	.	.	.	.	.	.	.	.	4b-\	.	4dd-X\	.	4b-/	.	4dd-X\	.
8E-\	.	.	4r	.	4r	.	4r	.	.	.	.	.	.	.	.	.	.	.	.	.
8E-\J	.	.	.	.	.	.	.	.	.	.	.	.	16a-\LL	.	16cc\LL	.	16a-X/LL	.	16cc\LL	.
.	.	.	.	.	.	.	.	.	.	.	.	.	16g\JJ	.	16b-\JJ	.	16g/JJ	.	16b-\JJ	.
!	!	!	!	!	!	!	!	!	!	!	!	!	!LO:LB:g=original	!	!	!	!	!	!	!
=64	=64	=64	=64	=64	=64	=64	=64	=64	=64	=64	=64	=64	=64	=64	=64	=64	=64	=64	=64	=64
!	!	!LO:DY:b:t=for	!	!	!	!LO:DY:b:t=for:rj	!	!LO:DY:t=for:rj	!	!	!	!	!	!	!	!	!	!	!	!
8.A-X\L	.	f	4.e-\	.	8.a-X/L	f	8.a-X/L	f	4e-/	.	4e-/	.	2.a-\	.	2.cc\	.	2.a-/	.	2.cc\	.
16E-\K	.	.	.	.	16e-/K	.	16e-/K	.	.	.	.	.	.	.	.	.	.	.	.	.
8.E-\	6 4_	.	.	.	8.e-/	.	8.e-/	.	4e-/	.	4e-/	.	.	.	.	.	.	.	.	.
.	.	.	8e-\L	.	.	.	.	.	.	.	.	.	.	.	.	.	.	.	.	.
16C\K	.	.	.	.	16c/K	.	16c/K	.	.	.	.	.	.	.	.	.	.	.	.	.
8.C\	x	.	8.e-\	.	8.c/	.	8.c/	.	4e-/	.	4e-/	.	.	.	.	.	.	.	.	.
16AA-\Jk	.	.	16c\Jk	.	16A-/Jk	.	16A-/Jk	.	.	.	.	.	.	.	.	.	.	.	.	.
!	!	!	!	!	!	!	!	!	!LO:LB:g=original	!	!	!	!	!	!	!	!	!	!LO:LB:g=original	!
=65	=65	=65	=65	=65	=65	=65	=65	=65	=65	=65	=65	=65	=65	=65	=65	=65	=65	=65	=65	=65
!	!	!	!	!	!LO:TX:a:t=1	!	!LO:TX:a:t=1	!	!	!	!	!	!	!	!	!	!	!	!	!
4r	.	.	8f\L	.	2.r	.	2.r	.	2.r	.	2.r	.	8a\L	.	8cc\L	.	8an/L	.	8cc\L	.
.	.	.	8f\J	.	.	.	.	.	.	.	.	.	8a\J	.	8cc\J	.	8a/J	.	8cc\J	.
8r	.	.	4f\	.	.	.	.	.	.	.	.	.	8a\	.	8cc\	.	8a/	.	8cc\	.
!	!	!LO:DY:b:t=po	!	!	!	!	!	!	!	!	!	!	!	!	!	!	!	!	!	!
8F\L	.	p	.	.	.	.	.	.	.	.	.	.	4cc\	.	4ee-X\	.	4cc/	.	4ee-\	.
8F\	.	.	4r	.	.	.	.	.	.	.	.	.	.	.	.	.	.	.	.	.
8F\J	.	.	.	.	.	.	.	.	.	.	.	.	16b-\LL	.	16dd\LL	.	16b-/LL	.	16dd\LL	.
.	.	.	.	.	.	.	.	.	.	.	.	.	16a\JJ	.	16cc\JJ	.	16a/JJ	.	16cc\JJ	.
=66	=66	=66	=66	=66	=66	=66	=66	=66	=66	=66	=66	=66	=66	=66	=66	=66	=66	=66	=66	=66
!	!	!LO:DY:b:t=for	!	!	!	!	!	!	!	!	!	!	!	!	!	!	!	!	!	!
8.B-\L	.	f	4.f\	.	8.b-/L	.	8.b-/L	.	8.b-/L	.	8.ff\L	.	2.b-\	.	2.dd\	.	2.b-/	.	2.dd\	.
16F\K	.	.	.	.	16f/K	.	16f/K	.	16b-/K	.	16ff\K	.	.	.	.	.	.	.	.	.
8.F\	.	.	.	.	8.f/	.	8.f/	.	8.b-/	.	8.ff\	.	.	.	.	.	.	.	.	.
.	.	.	8f\L	.	.	.	.	.	.	.	.	.	.	.	.	.	.	.	.	.
16D\K	.	.	.	.	16d/K	.	16d/K	.	16b-/K	.	16ff\K	.	.	.	.	.	.	.	.	.
8.D\	.	.	8.f\	.	8.d/	.	8.d/	.	8.b-/	.	8.ff\	.	.	.	.	.	.	.	.	.
16BB-\Jk	.	.	16d\Jk	.	16B-/Jk	.	16B-/Jk	.	16b-/Jk	.	16ff\Jk	.	.	.	.	.	.	.	.	.
!	!	!	!	!	!LO:LB:g=original	!	!LO:LB:g=original	!	!	!	!	!	!	!	!LO:LB:g=original	!	!	!	!	!
=67	=67	=67	=67	=67	=67	=67	=67	=67	=67	=67	=67	=67	=67	=67	=67	=67	=67	=67	=67	=67
!	!	!	!	!	!	!	!LO:TX:a:t=1	!	!	!	!LO:TX:a:t=1	!	!LO:SIC:v:o=8b-\L	!	!	!	!	!	!	!
4r	.	.	8g\L	.	2.r	.	2.r	.	2.r	.	2.r	.	8bn\L	.	8dd\L	.	8bn\L	.	8dd\L	.
!	!	!	!	!	!	!	!	!	!	!	!	!	!LO:SIC:v:o=8b-\J	!	!	!	!	!	!	!
.	.	.	8g\	.	.	.	.	.	.	.	.	.	8b\J	.	8dd\J	.	8b\J	.	8dd\J	.
!	!	!	!	!	!	!	!	!	!	!	!	!	!LO:SIC:v:o=8b-\	!	!	!	!	!	!	!
8r	.	.	8g\J	.	.	.	.	.	.	.	.	.	8b\	.	8dd\	.	8b\	.	8dd\	.
!	!	!LO:DY:b:t=po	!	!	!	!	!	!	!	!	!	!	!	!	!	!	!	!	!	!
8G\L	.	p	8r	.	.	.	.	.	.	.	.	.	4dd\	.	4ff\	.	4dd\	.	4ff\	.
8G\	.	.	4r	.	.	.	.	.	.	.	.	.	.	.	.	.	.	.	.	.
8G\J	.	.	.	.	.	.	.	.	.	.	.	.	16cc\LL	.	16ee-\LL	.	16cc\LL	.	16ee-\LL	.
!	!	!	!	!	!	!	!	!	!	!	!	!	!LO:SIC:v:o=16b-\JJ	!	!	!	!	!	!	!
.	.	.	.	.	.	.	.	.	.	.	.	.	16b\JJ	.	16dd\JJ	.	16bn\JJ	.	16dd\JJ	.
!	!	!	!LO:LB:g=original	!	!	!	!	!	!	!	!	!	!	!	!	!	!	!	!	!
=68	=68	=68	=68	=68	=68	=68	=68	=68	=68	=68	=68	=68	=68	=68	=68	=68	=68	=68	=68	=68
!	!	!LO:DY:b:t=for	!	!	!	!	!	!	!	!	!	!	!	!	!	!	!	!	!	!
8.c\L	.	f	4.g\	.	8.cc\L	.	8.cc/L	.	8.g/L	.	8.g/L	.	2.cc\	.	2.ee-\	.	2.cc\	.	2.ee-\	.
16G\K	.	.	.	.	16g\K	.	16g/K	.	16g/K	.	16g/K	.	.	.	.	.	.	.	.	.
8.G\	.	.	.	.	8.g\	.	8.g/	.	8.g/	.	8.g/	.	.	.	.	.	.	.	.	.
.	.	.	8g\L	.	.	.	.	.	.	.	.	.	.	.	.	.	.	.	.	.
16E-\K	.	.	.	.	16e-\K	.	16e-/K	.	16g/K	.	16g/K	.	.	.	.	.	.	.	.	.
8.E-\	.	.	8.g\	.	8.e-\	.	8.e-/	.	8.g/	.	8.g/	.	.	.	.	.	.	.	.	.
16C\Jk	.	.	16e-\Jk	.	16c\Jk	.	16c/Jk	.	16g/Jk	.	16g/Jk	.	.	.	.	.	.	.	.	.
!	!	!	!	!	!	!	!	!	!	!	!	!	!	!	!	!	!LO:LB:g=original	!	!	!
=69	=69	=69	=69	=69	=69	=69	=69	=69	=69	=69	=69	=69	=69	=69	=69	=69	=69	=69	=69	=69
!	!	!	!LO:TX:t=P:problem=mixed beam	!	!	!	!	!	!LO:TX:a:t=15.	!	!LO:TX:a:t=15.	!	!	!	!	!	!	!	!	!
4r	.	.	8b-\L	.	2.r	.	2.r	.	0.r	.	0.r	.	8dd\L	.	8ff\L	.	8dd\L	.	8ff\L	.
.	.	.	8B-/	.	.	.	.	.	.	.	.	.	8dd\J	.	8ff\J	.	8dd\J	.	8ff\J	.
8r	.	.	8B-/J	.	.	.	.	.	.	.	.	.	8dd\	.	8ff\	.	8dd\	.	8ff\	.
!	!	!LO:DY:b:t=piano	!	!	!	!	!	!	!	!	!	!	!	!	!	!	!	!	!	!
8BB-X/L	.	p	8r	.	.	.	.	.	.	.	.	.	4ff\	.	4aa-X\	.	4ff\	.	4aa-X\	.
8BB-/	.	.	4r	.	.	.	.	.	.	.	.	.	.	.	.	.	.	.	.	.
8BB-/J	.	.	.	.	.	.	.	.	.	.	.	.	16ee-\LL	.	16gg\LL	.	16ee-\LL	.	16gg\LL	.
.	.	.	.	.	.	.	.	.	.	.	.	.	16dd\JJ	.	16ff\JJ	.	16dd\JJ	.	16ff\JJ	.
!LO:LB:g=original	!	!	!	!	!	!	!	!	!	!	!	!	!	!	!	!	!	!	!	!
=70	=70	=70	=70	=70	=70	=70	=70	=70	=70	=70	=70	=70	=70	=70	=70	=70	=70	=70	=70	=70
4E-\	.	.	4B-/	.	8r	.	8r	.	.	.	.	.	8ee-\L	.	8gg\L	.	8ee-\L	.	8gg\L	.
!	!	!	!	!	!	!LO:DY:b:t=po:rj	!	!LO:DY:t=po:rj	!	!	!	!	!	!	!	!	!	!	!	!
.	.	.	.	.	(8ee-\L	p	(8gg\L	p	.	.	.	.	(8ee-\	.	(8gg\	.	(8ee-\	.	(8gg\	.
4r	.	.	4r	.	8dd\	.	8ff\	.	.	.	.	.	8dd\	.	8ff\	.	8dd\	.	8ff\	.
.	.	.	.	.	8cc\	.	8ee-\	.	.	.	.	.	8cc\	.	8ee-\	.	8cc\	.	8ee-\	.
4r	.	.	4r	.	8b-\	.	8dd\	.	.	.	.	.	8b-\	.	8dd\	.	8b-\	.	8dd\	.
.	.	.	.	.	8a-\J)	.	8cc\J)	.	.	.	.	.	8a-\J)	.	8cc\J)	.	8a-\J)	.	8cc\J)	.
!	!	!	!	!	!	!	!	!	!	!	!	!	!LO:LB:g=original	!	!	!	!	!	!	!
=71	=71	=71	=71	=71	=71	=71	=71	=71	=71	=71	=71	=71	=71	=71	=71	=71	=71	=71	=71	=71
!	!	!	!LO:TX:a:t=1	!	!	!	!	!	!	!	!	!	!	!	!	!	!	!	!	!
4E-\	.	.	2.r	.	8g/L	.	8b-\L	.	.	.	.	.	8g/L	.	8b-/L	.	8g/L	.	8b-/L	.
.	.	.	.	.	8a-/J	.	8cc\J	.	.	.	.	.	8a-/J	.	8cc/J	.	8a-/J	.	8cc/J	.
.	.	.	.	.	8qqg/	.	8qqb-/	.	.	.	.	.	8qa-/	.	8qb-/	.	8qa-/	.	8qqb-/	.
8F\L	.	.	.	.	2fT/	.	2a-/	.	.	.	.	.	2f/	.	2a-/	.	2f/	.	2a-/	.
8BB-\	.	.	.	.	.	.	.	.	.	.	.	.	.	.	.	.	.	.	.	.
8C\	.	.	.	.	.	.	.	.	.	.	.	.	.	.	.	.	.	.	.	.
8D\J	.	.	.	.	.	.	.	.	.	.	.	.	.	.	.	.	.	.	.	.
!	!	!	!	!	!	!	!	!	!	!	!	!	!	!	!	!	!	!	!LO:LB:g=original	!
=72	=72	=72	=72	=72	=72	=72	=72	=72	=72	=72	=72	=72	=72	=72	=72	=72	=72	=72	=72	=72
.	.	.	.	.	.	.	8qqa-/	.	.	.	.	.	.	.	.	.	.	.	.	.
4E-\	.	.	4r	.	2e-/	.	2g/	.	.	.	.	.	2e-/	.	2g/	.	2e-/	.	2g/	.
4E-\	.	.	4r	.	.	.	.	.	.	.	.	.	.	.	.	.	.	.	.	.
4E-\	.	.	4b-\	.	4b-\	.	4gg\	.	.	.	.	.	4b-\	.	[4gg\	.	4b-\	.	[4gg\	.
=73	=73	=73	=73	=73	=73	=73	=73	=73	=73	=73	=73	=73	=73	=73	=73	=73	=73	=73	=73	=73
4A-\	7	.	4a-\	.	8cc\	.	2.gg\	.	0.r	.	0.r	.	8cc\	.	16gg|>\LL]	.	8cc\	.	16gg\LL]	.
.	.	.	.	.	.	.	.	.	.	.	.	.	.	.	(16gg\	.	.	.	(16gg\	.
.	.	.	.	.	4cc\	.	.	.	.	.	.	.	4cc\	.	16ff\)	.	4cc\	.	16ff\	.
.	.	.	.	.	.	.	.	.	.	.	.	.	.	.	16ee-|>\JJ	.	.	.	16ee-\JJ)	.
4A-\	.	.	4a-\	.	.	.	.	.	.	.	.	.	.	.	16gg|>\LL	.	.	.	16gg|>\LL	.
.	.	.	.	.	.	.	.	.	.	.	.	.	.	.	(16gg\	.	.	.	(16gg\	.
.	.	.	.	.	4cc\	.	.	.	.	.	.	.	4cc\	.	16ff\)	.	4cc\	.	16ff\	.
.	.	.	.	.	.	.	.	.	.	.	.	.	.	.	16ee-|>\JJ	.	.	.	16ee-\JJ)	.
!	!	!	!	!	!	!	!	!	!	!	!	!	!	!	!LO:LB:g=original	!	!	!	!	!
=-	=-	=-	=-	=-	=-	=-	=-	=-	=-	=-	=-	=-	=-	=-	=-	=-	=-	=-	=-	=-
4A-\	.	.	4a-\	.	.	.	.	.	.	.	.	.	.	.	16gg|>\LL	.	.	.	16gg|>\LL	.
.	.	.	.	.	.	.	.	.	.	.	.	.	.	.	(16gg\	.	.	.	(16gg\	.
.	.	.	.	.	8cc\	.	.	.	.	.	.	.	[8cc\	.	16ff\)	.	[8cc\	.	16ff\	.
.	.	.	.	.	.	.	.	.	.	.	.	.	.	.	16ee-|>\JJ	.	.	.	16ee-\JJ)	.
!	!	!	!	!	!LO:LB:g=original	!	!	!	!	!	!	!	!	!	!	!	!	!	!	!
=74	=74	=74	=74	=74	=74	=74	=74	=74	=74	=74	=74	=74	=74	=74	=74	=74	=74	=74	=74	=74
4D\	7	.	4a-\	.	2.cc\	.	8ff\	.	.	.	.	.	16cc|>\LL]	.	8ff\	.	16cc\LL]	.	8ff\	.
.	.	.	.	.	.	.	.	.	.	.	.	.	(16cc\	.	.	.	(16cc\	.	.	.
.	.	.	.	.	.	.	4ff\	.	.	.	.	.	16b-\)	.	4ff\	.	16b-\	.	4ff\	.
!	!	!	!	!	!	!	!	!	!	!	!	!	!	!	!	!	!LO:TX:a:t=P:problem=♮ above	!	!	!
.	.	.	.	.	.	.	.	.	.	.	.	.	16a|>\JJ	.	.	.	16an\JJ)	.	.	.
4D\	.	.	4a-\	.	.	.	.	.	.	.	.	.	16cc|>\LL	.	.	.	16cc|>\LL	.	.	.
.	.	.	.	.	.	.	.	.	.	.	.	.	(16cc\	.	.	.	(16cc\	.	.	.
.	.	.	.	.	.	.	4ff\	.	.	.	.	.	16b-\)	.	4ff\	.	16b-\	.	4ff\	.
.	.	.	.	.	.	.	.	.	.	.	.	.	16a|>\JJ	.	.	.	16a\JJ)	.	.	.
4D\	.	.	4a-\	.	.	.	.	.	.	.	.	.	16cc|>\LL	.	.	.	16cc|>\LL	.	.	.
.	.	.	.	.	.	.	.	.	.	.	.	.	(16cc\	.	.	.	(16cc\	.	.	.
.	.	.	.	.	.	.	8ff\	.	.	.	.	.	16b-\)	.	[8ff\	.	16b-\	.	[8ff\	.
.	.	.	.	.	.	.	.	.	.	.	.	.	16a|>\JJ	.	.	.	16a\JJ)	.	.	.
!	!	!	!	!	!	!	!LO:LB:g=original	!	!	!	!	!	!	!	!	!	!LO:LB:g=original	!	!	!
=75	=75	=75	=75	=75	=75	=75	=75	=75	=75	=75	=75	=75	=75	=75	=75	=75	=75	=75	=75	=75
4G\	7	.	4g\	.	8b-/	.	2.ff\	.	.	.	.	.	8b-\	.	16ff|>\LL]	.	8b-/	.	16ff\LL]	.
.	.	.	.	.	.	.	.	.	.	.	.	.	.	.	(16ff\	.	.	.	(16ff\	.
.	.	.	.	.	4b-/	.	.	.	.	.	.	.	4b-\	.	16ee-\)	.	4b-/	.	16ee-\	.
.	.	.	.	.	.	.	.	.	.	.	.	.	.	.	16dd|>\JJ	.	.	.	16dd\JJ)	.
4G\	.	.	4g\	.	.	.	.	.	.	.	.	.	.	.	16ff|>\LL	.	.	.	16ff|>\LL	.
.	.	.	.	.	.	.	.	.	.	.	.	.	.	.	(16ff\	.	.	.	(16ff\	.
.	.	.	.	.	4b-/	.	.	.	.	.	.	.	4b-\	.	16ee-\)	.	4b-/	.	16ee-\	.
.	.	.	.	.	.	.	.	.	.	.	.	.	.	.	16dd|>\JJ	.	.	.	16dd\JJ)	.
4G\	.	.	4g\	.	.	.	.	.	.	.	.	.	.	.	16ff|>\LL	.	.	.	16ff|>\LL	.
.	.	.	.	.	.	.	.	.	.	.	.	.	.	.	(16ff\	.	.	.	(16ff\	.
.	.	.	.	.	8b-/	.	.	.	.	.	.	.	[<8b-\	.	16ee-\)	.	[8b-/	.	16ee-\	.
.	.	.	.	.	.	.	.	.	.	.	.	.	.	.	16dd|>\JJ	.	.	.	16dd\JJ)	.
=76	=76	=76	=76	=76	=76	=76	=76	=76	=76	=76	=76	=76	=76	=76	=76	=76	=76	=76	=76	=76
4C/	7	.	4g\	.	2.b-/	.	8ee-\	.	.	.	.	.	16b-|</LL]	.	8ee-\	.	16b-/LL]	.	8ee-\	.
.	.	.	.	.	.	.	.	.	.	.	.	.	(16b-/	.	.	.	(16b-/	.	.	.
.	.	.	.	.	.	.	4ee-\	.	.	.	.	.	16a/)	.	4ee-\	.	16an/	.	4ee-\	.
.	.	.	.	.	.	.	.	.	.	.	.	.	16g|</JJ	.	.	.	16g/JJ)	.	.	.
4C/	.	.	4g\	.	.	.	.	.	.	.	.	.	16b-|</LL	.	.	.	16b-|</LL	.	.	.
.	.	.	.	.	.	.	.	.	.	.	.	.	(16b-/	.	.	.	(16b-/	.	.	.
.	.	.	.	.	.	.	4ee-\	.	.	.	.	.	16a/)	.	4ee-\	.	16a/	.	4ee-\	.
.	.	.	.	.	.	.	.	.	.	.	.	.	16g|</JJ	.	.	.	16g/JJ)	.	.	.
4C/	.	.	4g\	.	.	.	.	.	.	.	.	.	16b-|</LL	.	.	.	16b-|</LL	.	.	.
.	.	.	.	.	.	.	.	.	.	.	.	.	(16b-/	.	.	.	(16b-/	.	.	.
.	.	.	.	.	.	.	8ee-\	.	.	.	.	.	16a/)	.	[8ee-\	.	16a/	.	[8ee-\	.
.	.	.	.	.	.	.	.	.	.	.	.	.	16g|</JJ	.	.	.	16g/JJ)	.	.	.
!	!	!	!LO:LB:g=original	!	!	!	!	!	!	!	!	!	!LO:LB:g=original	!	!	!	!	!	!	!
=77	=77	=77	=77	=77	=77	=77	=77	=77	=77	=77	=77	=77	=77	=77	=77	=77	=77	=77	=77	=77
4F\	7	.	4f\	.	8a-/	.	2.ee-\	.	0.r	.	0.r	.	8a-\	.	16ee-|>\LL]	.	8a-/	.	16ee-\LL]	.
.	.	.	.	.	.	.	.	.	.	.	.	.	.	.	(16ee-\	.	.	.	(16ee-\	.
.	.	.	.	.	4a-/	.	.	.	.	.	.	.	4a-\	.	16dd\)	.	4a-/	.	16dd\	.
.	.	.	.	.	.	.	.	.	.	.	.	.	.	.	16cc|>\JJ	.	.	.	16cc\JJ)	.
4F\	.	.	4f\	.	.	.	.	.	.	.	.	.	.	.	16ee-|>\LL	.	.	.	16ee-|>\LL	.
.	.	.	.	.	.	.	.	.	.	.	.	.	.	.	(16ee-\	.	.	.	(16ee-\	.
.	.	.	.	.	4a-/	.	.	.	.	.	.	.	4a-\	.	16dd\)	.	4a-/	.	16dd\	.
.	.	.	.	.	.	.	.	.	.	.	.	.	.	.	16cc|>\JJ	.	.	.	16cc\JJ)	.
4F\	.	.	4f\	.	.	.	.	.	.	.	.	.	.	.	16ee-|>\LL	.	.	.	16ee-|>\LL	.
.	.	.	.	.	.	.	.	.	.	.	.	.	.	.	(16ee-\	.	.	.	(16ee-\	.
.	.	.	.	.	8a-/	.	.	.	.	.	.	.	[<8a-\	.	16dd\)	.	[8a-/	.	16dd\	.
.	.	.	.	.	.	.	.	.	.	.	.	.	.	.	16cc|>\JJ	.	.	.	16cc\JJ)	.
!	!	!	!	!	!	!	!	!	!	!	!	!	!	!	!	!	!	!	!LO:LB:g=original	!
=78	=78	=78	=78	=78	=78	=78	=78	=78	=78	=78	=78	=78	=78	=78	=78	=78	=78	=78	=78	=78
4BB-/	7	.	4f\	.	2.a-/	.	8dd\	.	.	.	.	.	16a-|</LL]	.	8dd\	.	16a-/LL]	.	8dd\	.
.	.	.	.	.	.	.	.	.	.	.	.	.	(16a-/	.	.	.	(16a-/	.	.	.
.	.	.	.	.	.	.	4dd\	.	.	.	.	.	16g/)	.	4dd\	.	16g/	.	4dd\	.
.	.	.	.	.	.	.	.	.	.	.	.	.	16f|</JJ	.	.	.	16f/JJ)	.	.	.
4BB-/	.	.	4f\	.	.	.	.	.	.	.	.	.	16a-|</LL	.	.	.	16a-|</LL	.	.	.
.	.	.	.	.	.	.	.	.	.	.	.	.	(16a-/	.	.	.	(16a-/	.	.	.
.	.	.	.	.	.	.	4dd\	.	.	.	.	.	16g/)	.	4dd\	.	16g/	.	4dd\	.
.	.	.	.	.	.	.	.	.	.	.	.	.	16f|</JJ	.	.	.	16f/JJ)	.	.	.
4BB-/	.	.	4B-/	.	.	.	.	.	.	.	.	.	16a-|</LL	.	.	.	16a-|</LL	.	.	.
.	.	.	.	.	.	.	.	.	.	.	.	.	(16a-/	.	.	.	(16a-/	.	.	.
.	.	.	.	.	.	.	8dd\	.	.	.	.	.	16g/)	.	8dd\	.	16g/	.	8dd\	.
.	.	.	.	.	.	.	.	.	.	.	.	.	16f|</JJ	.	.	.	16f/JJ)	.	.	.
!LO:LB:g=original	!	!	!	!	!	!	!	!	!	!	!	!	!	!	!	!	!LO:LB:g=original	!	!	!
=79	=79	=79	=79	=79	=79	=79	=79	=79	=79	=79	=79	=79	=79	=79	=79	=79	=79	=79	=79	=79
8E-\L	.	.	8B-/L	.	8g/L	.	8ee-\L	.	.	.	.	.	8g/L	.	8ee-\L	.	8g/L	.	8ee-\L	.
8E-\	.	.	8B-/	.	8b-/J	.	8gg\J	.	.	.	.	.	8b-/J	.	8gg\J	.	8b-/J	.	8gg\J	.
.	.	.	.	.	8qb-/	.	8qqgg/	.	.	.	.	.	8qb-/	.	8qgg/	.	8qb-/	.	8qqgg/	.
8A-\	.	.	8c/	.	4.a-/	.	4.ff\	.	.	.	.	.	4.a-/	.	4.ff\	.	4.a-/	.	4.ff\	.
8A-\	.	.	8c/	.	.	.	.	.	.	.	.	.	.	.	.	.	.	.	.	.
8A-\	.	.	8c/	.	.	.	.	.	.	.	.	.	.	.	.	.	.	.	.	.
8A-\J	.	.	8c/J	.	8g/	.	8ee-\	.	.	.	.	.	8g/	.	8ee-\	.	8g/	.	8ee-\	.
!	!	!	!	!	!LO:LB:g=original	!	!	!	!	!	!	!	!	!	!LO:LB:g=original	!	!	!	!	!
=80	=80	=80	=80	=80	=80	=80	=80	=80	=80	=80	=80	=80	=80	=80	=80	=80	=80	=80	=80	=80
!LO:TX:t=P:problem=mixed beam	!	!	!LO:TX:t=P:problem=mixed beam	!	!	!	!	!	!	!	!	!	!	!	!	!	!	!	!	!
8B-\L	.	.	8F/L	.	8f/L	.	8dd\L	.	.	.	.	.	8f/L	.	8dd\L	.	8f/L	.	8dd\L	.
8B-\	.	.	8F/	.	8cc/J	.	8aa-\J	.	.	.	.	.	8cc/J	.	8aa-\J	.	8cc/J	.	8aa-\J	.
.	.	.	.	.	8qcc/	.	8qqaa-/	.	.	.	.	.	8qcc/	.	8qaa-/	.	8qcc/	.	8qqaa-/	.
8BB-/	.	.	8f\	.	4.b-/	.	4.gg\	.	.	.	.	.	4.b-/	.	4.gg\	.	4.b-/	.	4.gg\	.
8BB-/	.	.	8f\	.	.	.	.	.	.	.	.	.	.	.	.	.	.	.	.	.
8BB-/	.	.	8B-\	.	.	.	.	.	.	.	.	.	.	.	.	.	.	.	.	.
8BB-/J	.	.	8B-\J	.	8a-/	.	8ff\	.	.	.	.	.	8a-/	.	8ff\	.	8a-/	.	8ff\	.
=81	=81	=81	=81	=81	=81	=81	=81	=81	=81	=81	=81	=81	=81	=81	=81	=81	=81	=81	=81	=81
!	!	!	!	!	!	!	!	!	!	!	!	!	!LO:TX:t=P:problem=mixed beam	!	!	!	!LO:TX:t=P:problem=mixed beam	!	!	!
4E-\	.	.	4B-/	.	4g/	.	4ee-\	.	1.r	.	1.r	.	8g/L	.	8ee-\L	.	8g/L	.	8ee-\L	.
.	.	.	.	.	.	.	.	.	.	.	.	.	(8ee-\	.	(8gg\	.	(8ee-\	.	8gg\	.
4r	.	.	4r	.	4r	.	4r	.	.	.	.	.	8dd\	.	8ff\	.	8dd\	.	8ff\	.
.	.	.	.	.	.	.	.	.	.	.	.	.	8cc\	.	8ee-\	.	8cc\	.	8ee-\	.
4r	.	.	4r	.	4r	.	4r	.	.	.	.	.	8b-\	.	8dd\)	.	8b-\	.	8dd\	.
.	.	.	.	.	.	.	.	.	.	.	.	.	8a-\J)	.	8cc\J	.	8a-\J)	.	8cc\J	.
!	!	!	!	!	!	!	!LO:LB:g=original	!	!	!	!	!	!	!	!	!	!	!	!	!
=82	=82	=82	=82	=82	=82	=82	=82	=82	=82	=82	=82	=82	=82	=82	=82	=82	=82	=82	=82	=82
!LO:TX:a:t=1	!	!	!LO:TX:a:t=2	!	!LO:TX:a:t=2	!	!LO:TX:a:t=2	!	!	!	!	!	!	!	!	!	!	!	!	!
2.r	.	.	1.r	.	1.r	.	1.r	.	.	.	.	.	8g\L	.	8b-\L	.	8g/L	.	8b-\L	.
.	.	.	.	.	.	.	.	.	.	.	.	.	(8cc\	.	8ee-\	.	(8cc/	.	8ee-\	.
.	.	.	.	.	.	.	.	.	.	.	.	.	8b-\	.	8dd\	.	8b-/	.	8dd\	.
.	.	.	.	.	.	.	.	.	.	.	.	.	8a-\	.	8ff\	.	8a-/	.	8ff\	.
.	.	.	.	.	.	.	.	.	.	.	.	.	8g\	.	8ee-\	.	8g/	.	8ee-\	.
.	.	.	.	.	.	.	.	.	.	.	.	.	8f\J)	.	8aa-\J	.	8f/J)	.	8aa-\J	.
!	!	!	!	!	!	!	!	!	!	!	!	!	!LO:LB:g=original	!	!	!	!	!	!	!
=83	=83	=83	=83	=83	=83	=83	=83	=83	=83	=83	=83	=83	=83	=83	=83	=83	=83	=83	=83	=83
!	!	!	!	!	!	!	!	!	!	!	!	!	!LO:TX:t=P:problem=mixed beam	!	!	!	!LO:TX:t=P:problem=mixed beam	!	!	!
4E-\	.	.	.	.	.	.	.	.	2.r	.	2.r	.	8e-/L	.	4gg\	.	8e-/L	.	4gg\	.
.	.	.	.	.	.	.	.	.	.	.	.	.	8ee-\J	.	.	.	8ee-\J	.	.	.
.	.	.	.	.	.	.	.	.	.	.	.	.	8qee-/	.	.	.	8qqee-/	.	.	.
4B-\	.	.	.	.	.	.	.	.	.	.	.	.	2ddt\	.	2ffT\	.	2ddt\	.	2ffT\	.
4BB-/	.	.	.	.	.	.	.	.	.	.	.	.	.	.	.	.	.	.	.	.
!	!	!	!	!	!	!	!	!	!	!	!LO:LB:g=original	!	!	!	!	!	!	!	!	!
=84	=84	=84	=84	=84	=84	=84	=84	=84	=84	=84	=84	=84	=84	=84	=84	=84	=84	=84	=84	=84
!	!	!LO:DY:a:t=Forte	!	!LO:DY:a:t=Forte	!	!LO:DY:a:t=F.:rj	!	!LO:DY:a:t=F.:rj	!	!LO:DY:a:t=F:rj	!	!LO:DY:a:t=F:rj	!	!LO:DY:a:t=for.	!	!LO:DY:a:t=f.	!	!LO:DY:a:t=F:rj	!	!LO:DY:a:t=F.:rj
8.E-\L	.	f	8.e-\L	f	8.e-/L	f	8.e-/L	f	8.e-/L	f	8.e-/L	f	2ee-\	f	2ee-\	f	2ee-\	f	2ee-\	f
16G\K	.	.	16g\K	.	16g/K	.	16g/K	.	16g/K	.	16g/K	.	.	.	.	.	.	.	.	.
8.G\	.	.	8.g\	.	8.g/	.	8.g/	.	8.g/	.	8.g/	.	.	.	.	.	.	.	.	.
16B-\K	.	.	16b-\K	.	16b-/K	.	16b-/K	.	16b-/K	.	16b-/K	.	.	.	.	.	.	.	.	.
8.B-\	.	.	8.b-\	.	8.b-/	.	8.b-/	.	8.b-/	.	8.b-/	.	4r	.	4r	.	4r	.	4r	.
16e-\Jk	.	.	16ee-\Jk	.	16ee-/Jk	.	16ee-/Jk	.	16ee-/Jk	.	16ee-/Jk	.	.	.	.	.	.	.	.	.
!	!	!	!LO:LB:g=original	!	!	!	!	!	!	!	!	!	!	!	!	!	!LO:LB:g=original	!	!LO:LB:g=original	!
=85	=85	=85	=85	=85	=85	=85	=85	=85	=85	=85	=85	=85	=85	=85	=85	=85	=85	=85	=85	=85
4e-\	.	.	4ee-\	.	8ee-\	.	8ee-\	.	8ee-\	.	8ee-\	.	8g/	.	8ee-\	.	8g/	.	8ee-\	.
.	.	.	.	.	4g/	.	4b-\	.	4g/	.	4b-\	.	4g/	.	4b-\	.	4g/	.	4b-\	.
4E-\	.	.	4e-\	.	.	.	.	.	.	.	.	.	.	.	.	.	.	.	.	.
.	.	.	.	.	4b-\	.	4ee-\	.	4g/	.	4ee-\	.	4b-\	.	4ee-\	.	4b-\	.	4ee-\	.
4E-\	.	.	4B-/	.	.	.	.	.	.	.	.	.	.	.	.	.	.	.	.	.
.	.	.	.	.	8ee-\	.	8gg\	.	8ee-\	.	8gg\	.	8ee-\	.	8gg\	.	8ee-\	.	8gg\	.
!LO:LB:g=original	!	!	!	!	!	!	!	!	!LO:LB:g=original	!	!	!	!	!	!	!	!	!	!	!
=86	=86	=86	=86	=86	=86	=86	=86	=86	=86	=86	=86	=86	=86	=86	=86	=86	=86	=86	=86	=86
4B-\	4	.	4B-/	.	4ee-M\	.	4ggm\	.	4ee-\	.	4ggm\	.	4ee-\	.	4ggm\	.	4ee-\	.	4ggm\	.
4BB-/	3	.	4B-/	.	4dd\	.	4ff\	.	4b-/	.	4ff\	.	4dd\	.	4ff\	.	4dd\	.	4ff\	.
4r	.	.	4r	.	4r	.	4r	.	4r	.	4r	.	4r	.	4r	.	4r	.	4r	.
!	!	!	!	!	!LO:LB:g=original	!	!	!	!	!	!	!	!	!	!	!	!	!	!	!
=87	=87	=87	=87	=87	=87	=87	=87	=87	=87	=87	=87	=87	=87	=87	=87	=87	=87	=87	=87	=87
4B-\	.	.	4B-/	.	8.d/L	.	8.f\L	.	2b-/	.	2ff\	.	8.d/L	.	8.f\L	.	8.d/L	.	8.f\L	.
.	.	.	.	.	16f/K	.	16b-\K	.	.	.	.	.	16f/K	.	16b-\K	.	16f/K	.	16b-\K	.
4B-\	.	.	4d\	.	8.f/	.	8.b-\	.	.	.	.	.	8.f/	.	8.b-\	.	8.f/	.	8.b-\	.
.	.	.	.	.	16b-/K	.	16dd\K	.	.	.	.	.	16b-/K	.	16dd\K	.	16b-/K	.	16dd\K	.
4B-\	.	.	4B-/	.	8.b-/	.	8.dd\	.	4r	.	4r	.	8.b-/	.	8.dd\	.	8.b-/	.	8.dd\	.
.	.	.	.	.	16dd/Jk	.	16ff\Jk	.	.	.	.	.	16dd/Jk	.	16ff\Jk	.	16dd/Jk	.	16ff\Jk	.
=88	=88	=88	=88	=88	=88	=88	=88	=88	=88	=88	=88	=88	=88	=88	=88	=88	=88	=88	=88	=88
4B-\	.	.	4B-/	.	8dd\	.	8ff\	.	8b-/	.	8ff\	.	8dd\	.	8ff\	.	8dd\	.	8ff\	.
.	.	.	.	.	4f\	.	4b-\	.	4b-/	.	4ff\	.	4f/	.	4b-\	.	4f/	.	4b-\	.
4B-\	.	.	4d\	.	.	.	.	.	.	.	.	.	.	.	.	.	.	.	.	.
.	.	.	.	.	8b-\L	.	8dd\L	.	4b-/	.	4ff\	.	(8b-\L	.	8dd\L	.	8b-\L	.	8dd\L	.
4B-\	.	.	4B-/	.	8dd\	.	8ff\	.	.	.	.	.	8dd\	.	8ff\	.	8dd\	.	8ff\	.
.	.	.	.	.	8ff\J	.	8aa-\J	.	8ff\	.	8aa-\	.	8ff\J)	.	8aa-\J	.	8ff\J	.	8aa-\J	.
!	!	!	!	!	!	!	!	!	!	!	!	!	!	!	!LO:LB:g=original	!	!	!	!	!
=89	=89	=89	=89	=89	=89	=89	=89	=89	=89	=89	=89	=89	=89	=89	=89	=89	=89	=89	=89	=89
8E-\L	.	.	8B-/L	.	8ee-\L	.	8gg\L	.	8ee-\L	.	8gg\L	.	8ee-\L	.	8gg\L	.	8ee-\L	.	8gg\L	.
8E-\	.	.	8B-/	.	8gg\J	.	8bb-\J	.	8gg\J	.	8bb-\J	.	8gg\J	.	8bb-\J	.	8gg\J	.	8bb-\J	.
.	.	.	.	.	8qgg/	.	8qqbb-/	.	8qqgg/	.	8qqbb-/	.	8qgg/	.	8qqbb-/	.	8qqgg/	.	8qqbb-/	.
8A-\	.	.	8c/	.	4.ff\	.	4.aa-\	.	4.ff\	.	4.aa-\	.	4.ff\	.	4.aa-\	.	4.ff\	.	4.aa-\	.
8A-\	.	.	8c/	.	.	.	.	.	.	.	.	.	.	.	.	.	.	.	.	.
8A-\	.	.	8c/	.	.	.	.	.	.	.	.	.	.	.	.	.	.	.	.	.
8A-\J	.	.	8c/J	.	8ee-\	.	8gg\	.	8ee-\	.	8gg\	.	8ee-\	.	8gg\	.	8ee-\	.	8gg\	.
!	!	!	!	!	!	!	!LO:LB:g=original	!	!	!	!	!	!	!	!	!	!	!	!	!
=90	=90	=90	=90	=90	=90	=90	=90	=90	=90	=90	=90	=90	=90	=90	=90	=90	=90	=90	=90	=90
8B-\L	.	.	8F/L	.	8dd\L	.	8ff\L	.	4cc/	.	4ff\	.	8dd\L	.	8ff\L	.	8dd\L	.	8ff\L	.
8B-\	.	.	8F/	.	8aa-\J	.	8ccc\J	.	.	.	.	.	8aa-\J	.	8ccc\J	.	8aa-\J	.	8ccc\J	.
.	.	.	.	.	8qqaa-/	.	8qqccc/	.	.	.	.	.	8qaa-/	.	8qqccc/	.	8qaa-/	.	8qqccc/	.
8B-\	.	.	8B-/	.	4.gg\	.	4.bb-\	.	4r	.	4r	.	4.gg\	.	4.bb-\	.	4.gg\	.	4.bb-\	.
8B-\	.	.	8B-/	.	.	.	.	.	.	.	.	.	.	.	.	.	.	.	.	.
8B-\	.	.	8B-/	.	.	.	.	.	8r	.	8r	.	.	.	.	.	.	.	.	.
8B-\J	.	.	8B-/J	.	8ff\	.	8aa-\	.	8ff\	.	8aa-\	.	8ff\	.	8aa-\	.	8ff\	.	8aa-\	.
!	!	!	!LO:LB:g=original	!	!	!	!	!	!	!	!LO:LB:g=original	!	!LO:LB:g=original	!	!	!	!LO:LB:g=original	!	!	!
=91	=91	=91	=91	=91	=91	=91	=91	=91	=91	=91	=91	=91	=91	=91	=91	=91	=91	=91	=91	=91
*	*	*	*	*	*	*	*Xtuplet	*	*	*	*tuplet	*	*	*	*	*	*	*	*	*
!	!	!	!	!	!	!	!	!	!	!	!LO:TUP:a	!	!	!	!LO:TUP:a:problem=klamra łukowa	!	!	!	!LO:TUP:a:problem=klamra łukowa	!
4E-\	.	.	4B-/	.	4ee-\	.	12gg\L	.	4ee-\	.	12gg\L	.	4ee-\	.	12gg\L	.	4ee-\	.	12gg\L	.
.	.	.	.	.	.	.	12ff\	.	.	.	12ff\	.	.	.	12ff\	.	.	.	12ff\	.
.	.	.	.	.	.	.	12ee-\J	.	.	.	12ee-\J	.	.	.	12ee-\J	.	.	.	12ee-\J	.
4B-\	.	.	4B-/	.	4ee-\	.	4gg\	.	4e-/	.	4gg\	.	4ee-\	.	4gg\	.	4ee-\	.	4gg\	.
4BB-/	.	.	4B-/	.	4dd\	.	4ffT\	.	4cc/	.	4ffT\	.	4dd\	.	4ffTT\	.	4dd\	.	4ffT\	.
!	!	!	!	!	!	!	!	!	!LO:LB:g=original	!	!	!	!	!	!	!	!	!	!LO:LB:g=original	!
=92	=92	=92	=92	=92	=92	=92	=92	=92	=92	=92	=92	=92	=92	=92	=92	=92	=92	=92	=92	=92
4E-\	.	.	4B-/	.	4ee-\	.	4ee-\	.	4g/	.	4ee-\	.	4ee-\	.	4ee-\	.	4ee-\	.	4ee-\	.
4E-\	.	.	4B-/	.	4G/ 4g	.	4ee-\	.	4g/	.	4ee-\	.	4g/	.	4ee-\	.	4g/	.	4ee-\	.
4E-\	.	.	4B-/	.	4G/ 4g	.	4ee-\	.	4g/	.	4ee-\	.	4g/	.	4ee-\	.	4g/	.	4ee-\	.
=93	=93	=93	=93	=93	=93	=93	=93	=93	=93	=93	=93	=93	=93	=93	=93	=93	=93	=93	=93	=93
2.E-\	.	.	2.B-/	.	2.G/ 2.g	.	2.ee-\	.	2.g/	.	2.ee-\	.	2.g/	.	2.ee-\	.	2.g/	.	2.ee-\	.
==;;	==	==	==;;	==	==;	==	==;;	==	==;;	==	==;;	==	==;;	==	==	==	==;;	==	==;;	==
*-	*-	*-	*-	*-	*-	*-	*-	*-	*-	*-	*-	*-	*-	*-	*-	*-	*-	*-	*-	*-
!!!system-decoration: [(s1,s2,s3,s4)][(s5,s6)][(s7,s8,s9)]s10
!!!RDF**kern: < = below
!!!RDF**kern: > = above
!!!RDF**kern: | = vertical stroke
!!!ENC: Filip Voros
!!!END: 2022-03-26
!!!ENC: Marta Chmielewska
!!!END: 2022-03-29
